cube/Color400.cube
#Created by: Adobe Photoshop Export Color Lookup Plugin
#Copyright: (C) Copyright 2024 Tim Martin and Presetpro.com
TITLE "Presetpro - Color 400.jpg"
#LUT size
LUT_3D_SIZE 8
#data domain
#LUT data points
DOMAIN_MIN 0.000000 0.000000 0.000000
DOMAIN_MAX 0.903226 0.903226 0.903226
0.023376 0.086761 0.066742
0.073059 0.089661 0.070099
0.148682 0.091827 0.070099
0.256409 0.096802 0.068787
0.429535 0.088379 0.060059
0.638519 0.040253 0.039093
0.836517 0.000000 0.002594
0.985565 0.075470 0.003021
0.027557 0.123535 0.070953
0.068848 0.130219 0.063843
0.153229 0.136047 0.068787
0.270599 0.133545 0.066315
0.438232 0.138062 0.056305
0.645630 0.118500 0.025543
0.833710 0.119873 0.000000
0.982666 0.166382 0.003876
0.022491 0.177856 0.085144
0.053558 0.184875 0.082672
0.136963 0.203705 0.068451
0.296539 0.226288 0.052094
0.451172 0.219513 0.031647
0.657379 0.229095 0.001312
0.842438 0.245575 0.000000
0.985565 0.283997 0.004608
0.000000 0.278473 0.103455
0.035828 0.279633 0.104645
0.119415 0.300201 0.090118
0.284363 0.358307 0.038757
0.538757 0.417938 0.002899
0.688232 0.386169 0.000000
0.844513 0.381165 0.004608
0.982239 0.413788 0.001312
0.001617 0.426086 0.121887
0.022461 0.426086 0.121887
0.090973 0.426819 0.123474
0.257019 0.488159 0.079376
0.506287 0.566132 0.001709
0.772736 0.635437 0.004089
0.886688 0.596252 0.000000
0.983978 0.561188 0.000000
0.000000 0.609680 0.187866
0.023529 0.606354 0.192169
0.129883 0.603821 0.187958
0.290527 0.630096 0.178528
0.484741 0.688904 0.123138
0.703094 0.744324 0.000031
0.906921 0.795135 0.001495
0.984375 0.752808 0.000305
0.192749 0.777557 0.331024
0.236511 0.775055 0.335571
0.318665 0.775696 0.340820
0.413574 0.772369 0.343842
0.538879 0.804657 0.337708
0.684265 0.838684 0.315094
0.838776 0.860657 0.277649
0.976440 0.878845 0.225250
0.484344 0.891479 0.518982
0.513458 0.889343 0.519073
0.551849 0.889038 0.530518
0.602722 0.888153 0.528656
0.669861 0.897522 0.538147
0.744873 0.908508 0.532562
0.824249 0.920990 0.524139
0.911865 0.928223 0.491638
0.029602 0.089661 0.108887
0.076385 0.090546 0.106445
0.146942 0.094727 0.108887
0.263092 0.100464 0.109772
0.436615 0.087524 0.115570
0.652313 0.018921 0.100616
0.842133 0.004303 0.070557
0.984833 0.051331 0.022675
0.023376 0.126862 0.106445
0.076843 0.130646 0.119354
0.156555 0.139801 0.118042
0.273926 0.138947 0.108459
0.451569 0.131378 0.103088
0.654480 0.106842 0.081879
0.852020 0.096527 0.054962
0.982971 0.149170 0.022888
0.037994 0.191223 0.123108
0.071869 0.193268 0.121490
0.148254 0.208313 0.108154
0.296936 0.217163 0.097595
0.464081 0.218323 0.086731
0.670715 0.222107 0.058838
0.849579 0.239227 0.019684
0.984711 0.278198 0.021393
0.000854 0.291504 0.137756
0.057983 0.291382 0.141510
0.131561 0.306030 0.139465
0.292755 0.360779 0.108459
0.540802 0.409119 0.022461
0.684326 0.372833 0.019226
0.852692 0.382477 0.020538
0.983856 0.410889 0.020081
0.002045 0.443054 0.169830
0.020538 0.444366 0.169830
0.127350 0.437683 0.178253
0.272308 0.490601 0.152405
0.508209 0.569458 0.029449
0.767792 0.632446 0.020844
0.890350 0.588409 0.019226
0.983643 0.552124 0.023438
0.001190 0.615173 0.236908
0.022797 0.617554 0.250244
0.173676 0.613220 0.247803
0.310150 0.635040 0.239929
0.492920 0.687622 0.209778
0.707611 0.745483 0.140656
0.910797 0.793396 0.019257
0.985260 0.752625 0.019684
0.229523 0.779358 0.377472
0.269623 0.779358 0.380066
0.338379 0.780975 0.381378
0.426910 0.775604 0.385590
0.544464 0.804657 0.381378
0.694916 0.833191 0.368988
0.839447 0.860199 0.346619
0.977051 0.884644 0.312286
0.493927 0.894409 0.557587
0.519135 0.889343 0.555756
0.558075 0.893341 0.563416
0.613586 0.891479 0.566193
0.671906 0.892792 0.564484
0.745300 0.909912 0.565338
0.829193 0.921204 0.555023
0.914856 0.931213 0.535400
0.034241 0.094299 0.169586
0.083069 0.096344 0.170319
0.146942 0.100983 0.176147
0.250244 0.106781 0.176239
0.441132 0.063263 0.185394
0.668427 0.001190 0.170746
0.857422 0.000854 0.191956
0.982239 0.013794 0.185486
0.016266 0.130646 0.184875
0.081024 0.139374 0.174957
0.162811 0.146027 0.179901
0.267365 0.145172 0.179565
0.461914 0.109222 0.184082
0.676117 0.056152 0.187103
0.865387 0.051941 0.189606
0.985565 0.134735 0.178833
0.009155 0.201202 0.178711
0.075531 0.207458 0.184082
0.165375 0.215454 0.192078
0.317291 0.218750 0.196594
0.490326 0.219513 0.182037
0.692657 0.213043 0.183990
0.869141 0.226410 0.164612
0.984375 0.269043 0.152222
0.022064 0.314423 0.218018
0.094360 0.321838 0.220062
0.179474 0.321503 0.224152
0.316101 0.365326 0.206268
0.542419 0.380371 0.162476
0.700928 0.357788 0.129089
0.869476 0.377930 0.105499
0.982971 0.405914 0.066101
0.000854 0.475281 0.264832
0.043091 0.473969 0.259888
0.185486 0.472656 0.270660
0.306976 0.497284 0.263855
0.528656 0.571075 0.237183
0.761475 0.613373 0.141754
0.885742 0.565369 0.038452
0.984711 0.542755 0.041779
0.049957 0.639252 0.343201
0.134521 0.638062 0.343201
0.243652 0.638702 0.340851
0.354675 0.634186 0.349243
0.506927 0.689362 0.333618
0.715149 0.743347 0.313385
0.901672 0.785980 0.265289
0.985565 0.743378 0.077118
0.290253 0.787354 0.456787
0.325287 0.788513 0.462402
0.387024 0.784729 0.464203
0.469116 0.780670 0.462921
0.568054 0.802307 0.463593
0.701385 0.831360 0.464447
0.839630 0.858917 0.450195
0.975250 0.881836 0.436554
0.521576 0.893646 0.603516
0.547699 0.892792 0.598663
0.580719 0.893646 0.604156
0.629089 0.894958 0.608795
0.683533 0.892883 0.618805
0.754974 0.906799 0.613739
0.833618 0.917328 0.609009
0.910767 0.928223 0.593719
0.008179 0.096802 0.293091
0.078003 0.100983 0.292786
0.169586 0.101837 0.293091
0.289001 0.106781 0.303101
0.436401 0.086334 0.304962
0.650696 0.002472 0.334656
0.862457 0.002045 0.345184
0.982666 0.000000 0.327637
0.000854 0.139801 0.305267
0.073822 0.143585 0.304382
0.182495 0.146484 0.309448
0.292450 0.152283 0.309052
0.452026 0.143036 0.324097
0.673279 0.060486 0.348511
0.873352 0.021393 0.340851
0.982117 0.024414 0.344635
0.002045 0.210785 0.325256
0.022583 0.209930 0.326538
0.173645 0.220825 0.331512
0.319458 0.233398 0.331604
0.493225 0.234589 0.350342
0.705994 0.206665 0.355286
0.880890 0.200684 0.345428
0.984924 0.311981 0.386414
0.002045 0.338287 0.331055
0.019226 0.344849 0.344849
0.169983 0.355743 0.348724
0.351624 0.371674 0.367554
0.547943 0.378326 0.367004
0.725922 0.382294 0.358307
0.889374 0.397614 0.356262
0.983856 0.427429 0.357361
0.022217 0.508087 0.392151
0.138428 0.513580 0.397217
0.273010 0.516937 0.413788
0.379547 0.516907 0.417145
0.549438 0.574097 0.419250
0.751892 0.579590 0.364288
0.878296 0.535339 0.302307
0.981720 0.551971 0.295746
0.249115 0.668854 0.493134
0.303314 0.670898 0.491852
0.341797 0.668976 0.476868
0.429840 0.666687 0.485168
0.542419 0.686737 0.484741
0.727631 0.745605 0.487946
0.892273 0.774689 0.455048
0.985260 0.728943 0.347595
0.377014 0.803925 0.554474
0.411407 0.803253 0.561707
0.455811 0.799835 0.557800
0.522614 0.797791 0.561920
0.600098 0.794861 0.561493
0.718994 0.830170 0.570953
0.847321 0.856018 0.573212
0.967163 0.880554 0.573547
0.551300 0.896454 0.661377
0.576447 0.898712 0.660950
0.612122 0.899567 0.663757
0.657410 0.893433 0.664276
0.703125 0.893555 0.667419
0.768219 0.906982 0.673004
0.838470 0.918640 0.676361
0.913879 0.926819 0.669800
0.000000 0.098511 0.487762
0.019226 0.100983 0.481293
0.185394 0.099243 0.484528
0.332489 0.095154 0.492065
0.491089 0.081696 0.504425
0.650909 0.021515 0.512299
0.840515 0.007690 0.530273
0.985260 0.082184 0.548920
0.000427 0.141510 0.491638
0.020844 0.143127 0.495850
0.184082 0.144440 0.498199
0.347900 0.145599 0.506470
0.499908 0.142700 0.509094
0.657257 0.124084 0.512207
0.850098 0.141418 0.542023
0.985260 0.184723 0.553436
0.004089 0.211243 0.512726
0.020538 0.219086 0.517365
0.170441 0.225342 0.520264
0.357025 0.241699 0.525299
0.526947 0.251373 0.529510
0.684479 0.259369 0.535767
0.858154 0.290802 0.551270
0.984924 0.314392 0.562988
0.000000 0.352295 0.528259
0.023346 0.351532 0.529816
0.040161 0.354004 0.542328
0.365753 0.380707 0.546204
0.550751 0.409149 0.559509
0.708160 0.426697 0.562653
0.878174 0.434784 0.570007
0.984283 0.458282 0.565887
0.000000 0.531128 0.542755
0.019684 0.531250 0.540283
0.200806 0.546967 0.548676
0.397766 0.557404 0.563293
0.573029 0.579498 0.587769
0.739380 0.578278 0.581207
0.878937 0.586273 0.573761
0.978607 0.597565 0.568298
0.272949 0.693298 0.590332
0.320923 0.692963 0.596405
0.407288 0.698364 0.604645
0.518555 0.700928 0.615723
0.599915 0.703827 0.614136
0.733795 0.747223 0.622864
0.879913 0.746490 0.587982
0.979767 0.695465 0.504211
0.459473 0.811432 0.657928
0.493652 0.814880 0.660278
0.542053 0.813934 0.665344
0.593079 0.816284 0.665497
0.651489 0.808746 0.662872
0.733551 0.829315 0.667603
0.851379 0.857208 0.683533
0.956512 0.868591 0.671082
0.608765 0.900879 0.733795
0.625305 0.901520 0.729187
0.652191 0.902588 0.727356
0.687012 0.900726 0.725708
0.727783 0.900208 0.726807
0.780609 0.901520 0.732635
0.844391 0.913971 0.737549
0.918518 0.925201 0.740814
0.002167 0.096802 0.670898
0.019226 0.092285 0.672089
0.221558 0.088074 0.671783
0.394714 0.079132 0.679749
0.558258 0.078491 0.682098
0.712158 0.078705 0.692108
0.842896 0.090973 0.685333
0.982452 0.224152 0.703278
0.001190 0.146484 0.675842
0.020935 0.141846 0.678131
0.225220 0.140106 0.679596
0.400238 0.136780 0.679779
0.567200 0.151550 0.690613
0.719055 0.168121 0.693176
0.844818 0.186523 0.685120
0.979126 0.294159 0.703094
0.002167 0.228790 0.688812
0.020935 0.228241 0.690186
0.210785 0.230927 0.687256
0.403564 0.243408 0.690491
0.579590 0.272705 0.698456
0.728088 0.304138 0.700195
0.853333 0.327148 0.696838
0.975128 0.408539 0.708038
0.000000 0.344452 0.692200
0.020081 0.351105 0.690063
0.137878 0.364594 0.701385
0.407959 0.390381 0.705994
0.587555 0.425934 0.708344
0.737640 0.461456 0.711792
0.858063 0.482788 0.712341
0.968658 0.537933 0.721832
0.000427 0.534882 0.701691
0.023102 0.534485 0.703827
0.058594 0.539551 0.703094
0.357880 0.540833 0.712006
0.593353 0.576141 0.716003
0.741516 0.610901 0.723846
0.857300 0.633514 0.728516
0.960693 0.648895 0.728271
0.147003 0.710968 0.705444
0.228546 0.708038 0.713867
0.348602 0.714630 0.715149
0.483978 0.721405 0.716431
0.627075 0.727203 0.729980
0.756470 0.746674 0.742157
0.861816 0.744751 0.731720
0.954254 0.745819 0.726654
0.482727 0.824677 0.743774
0.515503 0.825134 0.745178
0.570465 0.828125 0.747437
0.636719 0.828888 0.754425
0.709686 0.831787 0.763794
0.769623 0.832672 0.756683
0.859344 0.857300 0.774353
0.949310 0.854279 0.753906
0.624603 0.905182 0.796112
0.647491 0.909485 0.791992
0.679718 0.903320 0.795654
0.721252 0.906128 0.797577
0.760925 0.905579 0.794708
0.801788 0.903656 0.796722
0.854828 0.914124 0.802246
0.920898 0.924866 0.806976
0.111145 0.091919 0.819092
0.198364 0.087952 0.819427
0.328369 0.082794 0.818237
0.475708 0.082458 0.823944
0.623199 0.107147 0.823181
0.767761 0.191101 0.832764
0.883240 0.243530 0.824677
0.972015 0.279785 0.816498
0.104492 0.152069 0.821014
0.196320 0.151642 0.827484
0.330627 0.148956 0.827484
0.477631 0.155273 0.823944
0.633392 0.185974 0.827789
0.764893 0.259644 0.829865
0.885406 0.307739 0.827606
0.971161 0.340698 0.816406
0.063690 0.245453 0.827484
0.181366 0.247528 0.823944
0.329315 0.257202 0.827393
0.479889 0.271057 0.832306
0.630493 0.306732 0.826630
0.768982 0.370544 0.828674
0.877441 0.416962 0.829742
0.967072 0.442261 0.822754
0.000031 0.375031 0.825989
0.116821 0.381378 0.825653
0.307159 0.399567 0.827393
0.476959 0.415070 0.827820
0.633636 0.449310 0.827393
0.774231 0.503235 0.832672
0.871185 0.541687 0.831909
0.955780 0.565674 0.825348
0.001709 0.518524 0.826538
0.019684 0.519714 0.832672
0.171783 0.526947 0.827393
0.436768 0.551239 0.828125
0.628571 0.589722 0.835571
0.768311 0.631378 0.833527
0.866333 0.665588 0.835663
0.938507 0.683319 0.829315
0.071594 0.702881 0.830597
0.177643 0.708160 0.823608
0.310272 0.706757 0.826202
0.450623 0.708466 0.829529
0.588409 0.707611 0.829865
0.759277 0.742584 0.836121
0.861298 0.772827 0.836121
0.932281 0.784576 0.840942
0.418549 0.830597 0.825775
0.460052 0.835114 0.826935
0.516235 0.833954 0.825653
0.602509 0.836731 0.834717
0.694519 0.841492 0.838135
0.786743 0.846863 0.846863
0.865814 0.854736 0.850616
0.935211 0.853973 0.848053
0.639130 0.911499 0.845917
0.664612 0.907196 0.850098
0.699646 0.908203 0.850616
0.735443 0.913116 0.852875
0.782562 0.912811 0.853973
0.832062 0.914856 0.861816
0.868805 0.911499 0.863678
0.924438 0.925964 0.871094
0.318115 0.155243 0.925201
0.371552 0.156738 0.925720
0.455719 0.168274 0.926697
0.567200 0.196259 0.927887
0.685638 0.241486 0.926605
0.799744 0.321564 0.923157
0.893677 0.416595 0.922699
0.972229 0.463989 0.918182
0.324463 0.215698 0.928070
0.373718 0.219452 0.927551
0.460022 0.228088 0.928223
0.568268 0.256683 0.924744
0.686768 0.303223 0.926697
0.796722 0.376007 0.924011
0.888214 0.463837 0.918182
0.968140 0.504333 0.917328
0.328339 0.319733 0.930878
0.376617 0.318024 0.925812
0.460541 0.332764 0.924316
0.572693 0.358917 0.924103
0.688538 0.402008 0.922485
0.801910 0.460022 0.923798
0.886597 0.537323 0.914978
0.958893 0.569183 0.913330
0.322845 0.443298 0.926147
0.371155 0.446411 0.929382
0.462921 0.460297 0.926910
0.575470 0.486786 0.927887
0.691376 0.517548 0.924103
0.796844 0.566315 0.915497
0.880768 0.624359 0.913239
0.950592 0.652679 0.913239
0.223694 0.549103 0.926910
0.288696 0.555023 0.920563
0.420563 0.569641 0.926910
0.563416 0.598297 0.924561
0.682129 0.628876 0.918182
0.792542 0.664398 0.922089
0.871399 0.706238 0.911499
0.940277 0.731873 0.911499
0.215881 0.695251 0.921844
0.273773 0.692657 0.921844
0.360565 0.689331 0.918396
0.495819 0.697357 0.914520
0.658997 0.720642 0.912262
0.782227 0.755524 0.920898
0.868805 0.786743 0.915710
0.934875 0.802124 0.914001
0.446442 0.830597 0.908936
0.478027 0.832458 0.913574
0.532288 0.829742 0.910767
0.601105 0.827148 0.913879
0.679779 0.832672 0.917419
0.756683 0.832855 0.910980
0.864746 0.854279 0.911499
0.928528 0.871704 0.918091
0.605103 0.915497 0.908203
0.631439 0.914978 0.910461
0.665070 0.916046 0.909058
0.710358 0.912170 0.911865
0.765564 0.913879 0.913452
0.822662 0.915161 0.915161
0.872925 0.921204 0.918182
0.928528 0.925201 0.918518
