cube/Color400.cube
#Created by: Adobe Photoshop Export Color Lookup Plugin
#Copyright: (C) Copyright 2024 Tim Martin and Presetpro.com
TITLE "Presetpro - Color 400.jpg"
#LUT size
LUT_3D_SIZE 32
#data domain
DOMAIN_MIN 0.0 0.0 0.0
DOMAIN_MAX 1.0 1.0 1.0
#LUT data points
0.023376 0.086761 0.066742
0.034851 0.086761 0.066742
0.046539 0.086975 0.070312
0.061462 0.089783 0.066742
0.073059 0.089661 0.070099
0.091827 0.090118 0.066742
0.110229 0.091400 0.066742
0.131927 0.096039 0.068573
0.148682 0.091827 0.070099
0.168671 0.096802 0.063416
0.195862 0.095703 0.067810
0.231140 0.092285 0.065582
0.256409 0.096802 0.068787
0.294434 0.096802 0.064789
0.333252 0.096802 0.063416
0.382202 0.091827 0.061768
0.429535 0.088379 0.060059
0.480164 0.081604 0.058563
0.535370 0.069550 0.052856
0.584961 0.055969 0.044678
0.638519 0.040253 0.039093
0.690765 0.024445 0.030060
0.737366 0.005280 0.018616
0.790314 0.000000 0.009155
0.836517 0.000000 0.002594
0.883881 0.002716 0.000000
0.919342 0.021210 0.000000
0.959045 0.045013 0.002899
0.985565 0.075470 0.003021
0.987030 0.108826 0.000000
0.991974 0.129822 0.000000
1.000000 0.156860 0.003357
0.023376 0.091766 0.066833
0.038086 0.095123 0.069977
0.046661 0.098145 0.066833
0.064484 0.098236 0.069458
0.076477 0.101257 0.063629
0.094635 0.097931 0.066833
0.113556 0.098236 0.069458
0.132050 0.100952 0.069977
0.151062 0.101807 0.061035
0.174042 0.103973 0.067596
0.199219 0.105011 0.069092
0.231140 0.101593 0.068909
0.257690 0.105011 0.065643
0.297791 0.104919 0.065338
0.336609 0.104919 0.060272
0.387146 0.103302 0.064789
0.429291 0.099854 0.059967
0.483643 0.093170 0.053833
0.539124 0.081238 0.058014
0.591400 0.072937 0.043396
0.640778 0.058624 0.038635
0.688660 0.043884 0.033264
0.740784 0.030426 0.014008
0.789612 0.022583 0.001068
0.839111 0.021057 0.002472
0.883881 0.027283 0.000641
0.920013 0.049591 0.000000
0.961945 0.067780 0.002808
0.985260 0.097168 0.002899
0.990173 0.124176 0.000214
0.995178 0.144867 0.000000
1.000000 0.171753 0.003235
0.026703 0.099731 0.070099
0.031403 0.100037 0.069977
0.039856 0.103485 0.072754
0.055206 0.106720 0.069855
0.073486 0.107025 0.066956
0.097565 0.106506 0.070312
0.116669 0.106598 0.067383
0.131592 0.106934 0.063080
0.154724 0.110168 0.069214
0.178894 0.109192 0.066528
0.203949 0.107880 0.069458
0.226837 0.114441 0.065796
0.261230 0.112000 0.060272
0.302826 0.111328 0.066315
0.340271 0.111450 0.060608
0.383728 0.113068 0.056732
0.432648 0.106812 0.055237
0.483643 0.103149 0.053497
0.536133 0.097992 0.045105
0.590881 0.086029 0.051880
0.639923 0.076019 0.036713
0.694122 0.064514 0.024231
0.739746 0.057953 0.019592
0.790833 0.050507 0.000854
0.836975 0.049774 0.000214
0.881378 0.059235 0.000000
0.922913 0.076141 0.000214
0.961945 0.089508 0.006226
0.982117 0.115540 0.002808
0.987030 0.139526 0.000000
0.992065 0.156982 0.000000
0.999786 0.183350 0.003113
0.026398 0.111511 0.073425
0.031494 0.111206 0.066742
0.037079 0.111725 0.067291
0.052094 0.117889 0.067047
0.070251 0.118500 0.066833
0.092072 0.121002 0.072662
0.110870 0.115509 0.066742
0.133759 0.121857 0.068909
0.156128 0.118744 0.066742
0.175354 0.125519 0.062439
0.203613 0.124115 0.064789
0.235779 0.121857 0.064270
0.265015 0.122162 0.065033
0.303040 0.124878 0.058868
0.342407 0.123352 0.067047
0.384125 0.126587 0.058899
0.433289 0.122070 0.058472
0.485352 0.118195 0.053070
0.537628 0.111511 0.051025
0.591522 0.103119 0.045410
0.643036 0.096985 0.033905
0.697449 0.088501 0.027435
0.742737 0.086426 0.011932
0.792542 0.081268 0.000305
0.839447 0.081360 0.003021
0.884491 0.089783 0.000000
0.923523 0.104736 0.002472
0.961945 0.121216 0.000000
0.984924 0.138519 0.000305
0.987274 0.161346 0.003021
0.995087 0.178711 0.000305
0.999695 0.198944 0.003662
0.027557 0.123535 0.070953
0.034851 0.126007 0.073425
0.036957 0.126221 0.064911
0.047791 0.126862 0.067169
0.068848 0.130219 0.063843
0.095184 0.136047 0.067291
0.110657 0.135803 0.069641
0.135590 0.133240 0.067505
0.153229 0.136047 0.068787
0.179199 0.132599 0.065979
0.205444 0.133545 0.065247
0.236633 0.137207 0.063416
0.270599 0.133545 0.066315
0.309296 0.138275 0.058563
0.346191 0.140228 0.057159
0.390930 0.139038 0.058777
0.438232 0.138062 0.056305
0.490295 0.133545 0.048126
0.540131 0.130219 0.040497
0.595062 0.124817 0.035522
0.645630 0.118500 0.025543
0.700348 0.117279 0.021332
0.746918 0.110107 0.010651
0.797394 0.111908 0.000000
0.833710 0.119873 0.000000
0.886993 0.122681 0.000641
0.929352 0.132904 0.000000
0.965698 0.146484 0.000000
0.982666 0.166382 0.003876
0.989746 0.182953 0.005371
0.994659 0.200836 0.000092
0.996643 0.221161 0.000000
0.023376 0.140839 0.076782
0.028168 0.140839 0.076782
0.036316 0.138550 0.076233
0.047577 0.138367 0.070953
0.062927 0.135773 0.073853
0.084106 0.144165 0.072357
0.110321 0.151398 0.070099
0.134613 0.150208 0.063721
0.157501 0.151917 0.063721
0.180176 0.148987 0.066315
0.204803 0.149139 0.065674
0.235992 0.149231 0.061676
0.268250 0.151154 0.065430
0.311676 0.153320 0.060608
0.347137 0.155792 0.058105
0.394379 0.153656 0.057922
0.443298 0.150757 0.048889
0.493530 0.149139 0.046387
0.547302 0.147736 0.043152
0.599579 0.144287 0.036377
0.650269 0.142975 0.026154
0.699066 0.142456 0.009338
0.744568 0.143951 0.000946
0.795349 0.145233 0.003357
0.839874 0.148895 0.000000
0.887207 0.150208 0.003235
0.927734 0.164185 0.000000
0.968079 0.177856 0.000549
0.985565 0.192383 0.002472
0.987274 0.211121 0.002808
0.994537 0.228363 0.000000
0.996124 0.243103 0.003357
0.020020 0.152954 0.074066
0.026886 0.152435 0.074158
0.037384 0.150055 0.074493
0.045441 0.147888 0.074371
0.057220 0.155640 0.070953
0.075165 0.162231 0.070831
0.094177 0.162964 0.070099
0.128693 0.167816 0.070312
0.156982 0.174072 0.065674
0.181274 0.170959 0.061035
0.214813 0.172760 0.066650
0.246216 0.167053 0.057709
0.272980 0.170288 0.057373
0.310364 0.171051 0.059418
0.353058 0.168457 0.058228
0.398041 0.171906 0.056854
0.450531 0.172974 0.044006
0.501160 0.168243 0.046722
0.550110 0.171570 0.036377
0.600983 0.171570 0.021942
0.656403 0.171570 0.016052
0.705231 0.172546 0.007538
0.746613 0.173309 0.000946
0.796204 0.174072 0.000641
0.840393 0.177490 0.003235
0.885803 0.184906 0.001312
0.927185 0.197205 0.000549
0.966370 0.207855 0.000641
0.984283 0.221649 0.000305
0.989746 0.237244 0.003571
0.995178 0.250793 0.000092
0.997284 0.270416 0.003357
0.025940 0.165283 0.080841
0.031494 0.164551 0.080841
0.036530 0.165527 0.080292
0.050385 0.165283 0.080841
0.062286 0.168335 0.082336
0.070740 0.171967 0.073120
0.087494 0.176056 0.071564
0.119324 0.181976 0.073425
0.153870 0.189636 0.072662
0.189880 0.194244 0.065033
0.222260 0.194244 0.060822
0.246216 0.197266 0.054810
0.280701 0.199951 0.051331
0.315430 0.191376 0.051239
0.354797 0.192749 0.048553
0.403748 0.193481 0.048431
0.454376 0.193481 0.044464
0.505066 0.194580 0.036804
0.552826 0.198700 0.021332
0.606476 0.199951 0.010742
0.652618 0.199005 0.004089
0.704865 0.200623 0.000763
0.749725 0.200928 0.000000
0.797943 0.205139 0.003448
0.839874 0.212769 0.000000
0.889801 0.220184 0.003967
0.929901 0.228912 0.000000
0.967438 0.239349 0.002167
0.983307 0.253235 0.001831
0.985229 0.266479 0.001495
0.995178 0.279297 0.000092
0.999237 0.291779 0.000000
0.022491 0.177856 0.085144
0.030640 0.180328 0.084290
0.037384 0.179688 0.084503
0.046173 0.180328 0.085144
0.053558 0.184875 0.082672
0.070953 0.185089 0.079010
0.095154 0.191010 0.080963
0.108459 0.195404 0.074158
0.136963 0.203705 0.068451
0.176086 0.214691 0.065125
0.224274 0.225433 0.065247
0.257629 0.227814 0.053284
0.296539 0.226288 0.052094
0.331787 0.223816 0.049408
0.370178 0.222107 0.050171
0.408783 0.214569 0.038330
0.451172 0.219513 0.031647
0.503662 0.223083 0.026489
0.561218 0.226837 0.013336
0.612915 0.223389 0.004272
0.657379 0.229095 0.001312
0.708344 0.233521 0.000854
0.753082 0.234467 0.002350
0.802856 0.237915 0.004211
0.842438 0.245575 0.000000
0.886871 0.251495 0.000854
0.926575 0.262482 0.003357
0.958588 0.272614 0.000854
0.985565 0.283997 0.004608
0.989319 0.295288 0.000000
0.995178 0.307892 0.000854
1.000000 0.319733 0.000000
0.016693 0.202057 0.089142
0.030548 0.202057 0.092468
0.032990 0.199677 0.085358
0.045441 0.199677 0.088715
0.055908 0.201508 0.089569
0.070435 0.203003 0.086365
0.086548 0.209686 0.083740
0.106201 0.215942 0.083954
0.135223 0.224762 0.079224
0.165344 0.233063 0.067169
0.209656 0.248566 0.055847
0.263550 0.265442 0.048126
0.313751 0.266937 0.036163
0.351715 0.263611 0.033386
0.388062 0.262115 0.022400
0.434723 0.259308 0.022400
0.464935 0.251678 0.020569
0.508820 0.250061 0.016815
0.554962 0.250275 0.002808
0.608215 0.254150 0.003967
0.660706 0.260925 0.000946
0.711761 0.264252 0.001068
0.758362 0.267822 0.001923
0.807190 0.272552 0.001495
0.843842 0.279022 0.001617
0.890198 0.289459 0.001312
0.925171 0.297302 0.001831
0.963348 0.307007 0.000946
0.985565 0.317108 0.000000
0.988220 0.327240 0.000000
0.995178 0.339508 0.000946
0.995239 0.349823 0.000946
0.013458 0.220306 0.090118
0.022766 0.221588 0.092682
0.031891 0.221497 0.095581
0.041779 0.222992 0.097534
0.060455 0.221497 0.091278
0.066895 0.223114 0.087311
0.083649 0.229248 0.090118
0.100830 0.237427 0.084930
0.133179 0.243225 0.081299
0.159515 0.254517 0.071259
0.196930 0.271423 0.063416
0.253632 0.283081 0.054474
0.323639 0.308380 0.028534
0.363647 0.313934 0.010681
0.409485 0.311035 0.005615
0.451935 0.307617 0.001068
0.492004 0.303589 0.002258
0.530090 0.295105 0.000000
0.567719 0.286407 0.000000
0.614044 0.285645 0.000000
0.658539 0.292664 0.000000
0.711884 0.293823 0.003235
0.757355 0.298340 0.000946
0.805115 0.304810 0.002808
0.842773 0.320099 0.001495
0.887634 0.321472 0.001068
0.926575 0.329895 0.000000
0.967529 0.338928 0.006683
0.982971 0.349060 0.000000
0.987915 0.358093 0.002045
0.995178 0.368134 0.002167
1.000000 0.378326 0.003357
0.002167 0.250000 0.091492
0.012573 0.246735 0.095703
0.018890 0.247833 0.096802
0.030121 0.247833 0.097961
0.052490 0.246643 0.096252
0.067291 0.250000 0.098053
0.082886 0.252777 0.097321
0.100708 0.262695 0.096802
0.121124 0.272675 0.082886
0.159180 0.279999 0.078918
0.195648 0.295410 0.071381
0.239960 0.311218 0.058685
0.297058 0.326477 0.038971
0.372803 0.356628 0.005493
0.429047 0.365356 0.004608
0.474457 0.358582 0.000000
0.513641 0.358765 0.002167
0.556793 0.351440 0.000000
0.598083 0.345215 0.003357
0.630341 0.331421 0.001312
0.664246 0.325775 0.000000
0.710815 0.325775 0.000000
0.752869 0.335999 0.002380
0.803192 0.342773 0.006775
0.846558 0.347198 0.001495
0.893005 0.357300 0.001190
0.926575 0.365265 0.005493
0.959595 0.372040 0.000000
0.983215 0.384338 0.003021
0.988983 0.391113 0.000000
0.995087 0.401093 0.001190
0.997833 0.410156 0.000000
0.000000 0.278473 0.103455
0.004913 0.278595 0.100983
0.010925 0.276428 0.102692
0.021851 0.276733 0.102051
0.035828 0.279633 0.104645
0.053650 0.279755 0.100647
0.077515 0.281708 0.102051
0.091339 0.286438 0.096008
0.119415 0.300201 0.090118
0.149292 0.312164 0.085144
0.184021 0.325256 0.075256
0.229736 0.340759 0.054901
0.284363 0.358307 0.038757
0.346313 0.374237 0.012299
0.430359 0.410187 0.000000
0.498047 0.423431 0.000000
0.538757 0.417938 0.002899
0.578644 0.413208 0.001312
0.621338 0.405029 0.000641
0.657379 0.397614 0.000000
0.688232 0.386169 0.000000
0.722504 0.378326 0.000000
0.757690 0.371490 0.000000
0.798248 0.375671 0.000000
0.844513 0.381165 0.004608
0.889252 0.388580 0.001404
0.929901 0.398834 0.001495
0.962372 0.407410 0.000000
0.982239 0.413788 0.001312
0.990387 0.426178 0.001312
0.993256 0.431885 0.002045
1.000000 0.441986 0.000000
0.000000 0.311707 0.100128
0.006744 0.313660 0.103455
0.009613 0.311707 0.101501
0.015808 0.311707 0.101501
0.023102 0.313660 0.109283
0.041992 0.307831 0.105927
0.065552 0.308990 0.104828
0.088562 0.318481 0.103455
0.111969 0.328705 0.101196
0.149292 0.342682 0.090546
0.181122 0.351959 0.084412
0.224243 0.369141 0.063202
0.275635 0.386902 0.043060
0.335876 0.407349 0.009705
0.403320 0.426392 0.001831
0.488007 0.462463 0.001404
0.561890 0.484009 0.000000
0.601898 0.478516 0.005798
0.644379 0.469666 0.000000
0.679657 0.459442 0.000000
0.719666 0.449219 0.000000
0.748810 0.440186 0.004425
0.778259 0.429718 0.001404
0.806854 0.420471 0.003357
0.844604 0.419128 0.000000
0.885803 0.423859 0.001404
0.925171 0.434082 0.000000
0.959442 0.442383 0.000000
0.979980 0.449799 0.000000
0.988770 0.456909 0.000000
0.993683 0.465088 0.001831
1.000000 0.473267 0.000000
0.000000 0.348755 0.108307
0.004822 0.348480 0.109802
0.009613 0.346802 0.107971
0.014435 0.349609 0.109467
0.019226 0.347382 0.113892
0.028778 0.346069 0.110748
0.050171 0.346069 0.113373
0.079620 0.348480 0.113129
0.103790 0.361359 0.106140
0.137024 0.372223 0.097870
0.174347 0.389557 0.088074
0.214447 0.400543 0.077942
0.272400 0.421967 0.051147
0.322968 0.441345 0.009949
0.391510 0.459747 0.001495
0.455505 0.482025 0.000000
0.549255 0.514587 0.000244
0.624512 0.542847 0.000000
0.661804 0.533173 0.002716
0.700836 0.523682 0.004608
0.733002 0.513458 0.003021
0.767822 0.503754 0.001068
0.800537 0.495605 0.000000
0.829987 0.485474 0.000000
0.858063 0.474609 0.000000
0.886658 0.463074 0.001495
0.920197 0.466553 0.003357
0.953125 0.476257 0.000000
0.981903 0.480133 0.002167
0.989960 0.491852 0.001617
0.993469 0.498749 0.000000
0.998169 0.505646 0.000000
0.003357 0.387146 0.115204
0.008270 0.387268 0.115295
0.011322 0.387146 0.115204
0.016479 0.384979 0.114746
0.020844 0.385529 0.121887
0.024048 0.385437 0.116669
0.031860 0.387787 0.117767
0.061096 0.386292 0.115814
0.096161 0.394043 0.116669
0.134003 0.406738 0.110565
0.170227 0.424408 0.099579
0.216919 0.434753 0.086212
0.263580 0.454224 0.064484
0.321777 0.472961 0.028198
0.381470 0.492004 0.000092
0.445404 0.513855 0.004822
0.521271 0.534241 0.003235
0.598236 0.563660 0.001495
0.680328 0.593750 0.001617
0.720001 0.585999 0.000427
0.752075 0.576294 0.001190
0.785614 0.567566 0.001617
0.816681 0.556458 0.004089
0.847107 0.546356 0.000000
0.875488 0.536224 0.000000
0.906128 0.526123 0.001099
0.932556 0.516022 0.001709
0.955688 0.507202 0.000427
0.983643 0.511963 0.000000
0.990387 0.518829 0.000000
0.995178 0.525604 0.003235
0.998383 0.534027 0.001617
0.001617 0.426086 0.121887
0.008148 0.426086 0.123596
0.011322 0.427704 0.123596
0.016479 0.427338 0.123596
0.022461 0.426086 0.121887
0.025635 0.424347 0.121887
0.028839 0.426605 0.121887
0.041595 0.424133 0.123352
0.090973 0.426819 0.123474
0.127441 0.442841 0.117767
0.168610 0.458771 0.107971
0.210571 0.472443 0.092468
0.257019 0.488159 0.079376
0.313812 0.509796 0.048615
0.372864 0.525726 0.012634
0.436737 0.544342 0.001709
0.506287 0.566132 0.001709
0.575226 0.588196 0.003448
0.650330 0.607666 0.002167
0.730988 0.646332 0.001312
0.772736 0.635437 0.004089
0.797485 0.624573 0.000000
0.830719 0.615662 0.001709
0.863800 0.609833 0.001709
0.886688 0.596252 0.000000
0.916901 0.590363 0.000000
0.943359 0.579041 0.003357
0.964111 0.570099 0.001190
0.983978 0.561188 0.000000
0.987030 0.558044 0.001404
0.990356 0.557617 0.001831
1.000000 0.565979 0.000000
0.000000 0.468018 0.131989
0.006653 0.469849 0.133820
0.011230 0.470062 0.133820
0.015930 0.473206 0.135315
0.021057 0.469849 0.133820
0.025543 0.471680 0.133820
0.029480 0.471039 0.133820
0.035919 0.469543 0.131989
0.086578 0.468323 0.138245
0.127319 0.479614 0.127136
0.169830 0.491241 0.125336
0.208954 0.508240 0.105957
0.255615 0.523407 0.098389
0.310486 0.540863 0.075195
0.369629 0.555939 0.041199
0.425385 0.572937 0.000702
0.492615 0.595032 0.000000
0.558441 0.615173 0.000000
0.625885 0.629059 0.000000
0.693329 0.655945 0.001831
0.776184 0.686737 0.000000
0.812653 0.684509 0.000000
0.846832 0.672974 0.001495
0.873505 0.659943 0.000854
0.897675 0.654449 0.000763
0.926178 0.642517 0.001831
0.946686 0.634216 0.001831
0.970551 0.625183 0.001068
0.985565 0.617004 0.001495
0.990387 0.605591 0.000000
0.995178 0.599884 0.003235
0.998169 0.592987 0.000000
0.001953 0.513397 0.144562
0.004822 0.515350 0.147369
0.009613 0.515350 0.147369
0.017975 0.516968 0.145111
0.019226 0.515350 0.147369
0.025452 0.518158 0.147034
0.028839 0.515350 0.148682
0.034393 0.514587 0.147369
0.085815 0.509521 0.153503
0.133026 0.517670 0.145966
0.178864 0.529938 0.140808
0.220154 0.543823 0.128143
0.266937 0.556732 0.118683
0.315857 0.574310 0.102631
0.369019 0.587433 0.081757
0.424316 0.606720 0.047424
0.482483 0.626434 0.007233
0.544891 0.639984 0.000000
0.614594 0.660217 0.005280
0.671295 0.679291 0.000000
0.737976 0.692108 0.001953
0.810150 0.725677 0.000000
0.850922 0.729431 0.001953
0.879425 0.715912 0.005829
0.903381 0.707092 0.000763
0.933075 0.694794 0.000000
0.958740 0.686615 0.004211
0.978088 0.674561 0.001404
0.983307 0.667786 0.000000
0.990387 0.657867 0.000000
0.995178 0.647522 0.003235
0.996124 0.640747 0.004730
0.003357 0.560852 0.167603
0.008148 0.560852 0.165039
0.009613 0.564178 0.165039
0.016479 0.562134 0.165039
0.019684 0.561188 0.163727
0.027374 0.560852 0.167603
0.032196 0.560852 0.167603
0.041290 0.561584 0.165039
0.097656 0.559998 0.161804
0.147552 0.559540 0.166351
0.188995 0.570160 0.167511
0.227264 0.582336 0.155182
0.271790 0.593445 0.145569
0.319214 0.609558 0.129028
0.372559 0.626678 0.118988
0.419678 0.642517 0.095093
0.479462 0.660309 0.069244
0.534668 0.673645 0.014038
0.603943 0.689331 0.001404
0.660950 0.702301 0.002563
0.717621 0.719147 0.002045
0.772064 0.733459 0.000000
0.838654 0.758545 0.002045
0.883911 0.764404 0.000000
0.910706 0.753815 0.000000
0.934570 0.742310 0.000000
0.958954 0.733612 0.001312
0.977417 0.724762 0.000000
0.985260 0.716705 0.005066
0.990173 0.704742 0.001068
0.993988 0.694397 0.005585
0.994629 0.686340 0.001312
0.000000 0.609680 0.187866
0.006866 0.605469 0.183350
0.009613 0.607300 0.186676
0.014435 0.609650 0.185516
0.023529 0.606354 0.192169
0.025635 0.604706 0.190552
0.030762 0.604492 0.189697
0.066925 0.601593 0.192932
0.129883 0.603821 0.187958
0.168243 0.606323 0.191437
0.211151 0.608582 0.192383
0.252136 0.615570 0.185516
0.290527 0.630096 0.178528
0.336456 0.646240 0.167969
0.383759 0.658417 0.153778
0.435303 0.671967 0.145782
0.484741 0.688904 0.123138
0.538635 0.704285 0.104218
0.595428 0.716003 0.064301
0.645355 0.728607 0.025452
0.703094 0.744324 0.000031
0.754395 0.756927 0.001068
0.813812 0.768311 0.000000
0.869293 0.788239 0.000305
0.906921 0.795135 0.001495
0.935211 0.783386 0.000549
0.959198 0.772736 0.004303
0.980316 0.764771 0.000000
0.984375 0.752808 0.000305
0.989410 0.742584 0.000000
0.995087 0.734406 0.001068
0.997833 0.726471 0.001190
0.000000 0.655151 0.219299
0.007080 0.651825 0.219299
0.009613 0.652985 0.218231
0.016693 0.651825 0.219299
0.022614 0.651825 0.219299
0.028473 0.651825 0.215302
0.062775 0.650085 0.215515
0.125275 0.649536 0.224152
0.167206 0.648804 0.220703
0.207214 0.650848 0.222290
0.246155 0.647278 0.225006
0.277985 0.651825 0.215881
0.312469 0.665497 0.210815
0.355713 0.681183 0.207153
0.396393 0.691437 0.200043
0.442383 0.705536 0.190460
0.489471 0.716339 0.182037
0.542938 0.730927 0.169006
0.594360 0.741486 0.150513
0.644257 0.756775 0.130524
0.697266 0.764954 0.107483
0.745270 0.778503 0.061951
0.798492 0.789825 0.009094
0.840759 0.795624 0.000031
0.888947 0.815552 0.001068
0.932953 0.824158 0.001495
0.958191 0.814667 0.002258
0.979919 0.804565 0.002258
0.983765 0.794464 0.000000
0.990387 0.782257 0.000000
0.995178 0.771820 0.000946
1.000000 0.765289 0.000000
0.004791 0.695892 0.251160
0.008179 0.697296 0.250946
0.013855 0.697296 0.246643
0.040070 0.695282 0.251160
0.072693 0.696350 0.251160
0.105133 0.694946 0.254913
0.149536 0.693970 0.256866
0.183075 0.691376 0.252106
0.210480 0.694824 0.254517
0.248230 0.692017 0.255920
0.276733 0.688263 0.256531
0.308563 0.691620 0.255676
0.338348 0.702576 0.252258
0.374023 0.717773 0.247864
0.418030 0.725098 0.245392
0.460938 0.739929 0.239014
0.499146 0.746063 0.231262
0.548981 0.760620 0.222198
0.593475 0.767944 0.212524
0.639832 0.784088 0.204865
0.684296 0.790100 0.185120
0.739349 0.802490 0.175507
0.785065 0.809357 0.147186
0.826569 0.815735 0.119324
0.865601 0.821747 0.072418
0.909698 0.838013 0.030823
0.950562 0.847595 0.007141
0.977112 0.841675 0.000031
0.985565 0.827667 0.002289
0.990387 0.816467 0.000214
0.995178 0.810333 0.004089
0.999054 0.800323 0.000000
0.104675 0.739471 0.288513
0.114655 0.737732 0.287628
0.128387 0.736359 0.290344
0.150208 0.739471 0.296265
0.168365 0.736115 0.292297
0.190094 0.739471 0.293243
0.213043 0.737213 0.294556
0.240021 0.736115 0.293457
0.261963 0.735382 0.297760
0.295380 0.731842 0.295746
0.320862 0.732605 0.298828
0.348694 0.732056 0.297211
0.374725 0.738708 0.298981
0.408356 0.748718 0.295410
0.440643 0.757660 0.293152
0.479675 0.771973 0.287811
0.521118 0.777161 0.284424
0.556396 0.787262 0.273895
0.602112 0.795990 0.271210
0.643097 0.805023 0.270020
0.687592 0.813660 0.255066
0.732758 0.821930 0.240753
0.775787 0.828705 0.224579
0.812988 0.832153 0.215881
0.846619 0.844849 0.199646
0.885468 0.848846 0.175293
0.930298 0.856689 0.150757
0.968292 0.863892 0.133759
0.985565 0.859711 0.071899
0.985413 0.852386 0.007477
0.995178 0.843903 0.000031
1.000000 0.829681 0.002502
0.192749 0.777557 0.331024
0.204346 0.775696 0.331787
0.215179 0.772583 0.332001
0.229767 0.772369 0.335114
0.236511 0.775055 0.335571
0.255829 0.773651 0.333618
0.271912 0.777649 0.332550
0.300201 0.773895 0.334045
0.318665 0.775696 0.340820
0.343719 0.773987 0.340393
0.367157 0.772369 0.345795
0.390289 0.771942 0.342529
0.413574 0.772369 0.343842
0.441406 0.780426 0.341156
0.469269 0.787964 0.335876
0.501190 0.797241 0.339325
0.538879 0.804657 0.337708
0.575134 0.812439 0.332886
0.619873 0.821869 0.331573
0.654053 0.825226 0.314880
0.684265 0.838684 0.315094
0.724457 0.841705 0.309082
0.765778 0.845581 0.301880
0.805115 0.852997 0.295319
0.838776 0.860657 0.277649
0.873291 0.864746 0.263885
0.903839 0.868805 0.239990
0.943085 0.873230 0.231598
0.976440 0.878845 0.225250
0.987793 0.880890 0.186066
0.992584 0.873444 0.134216
0.997406 0.863983 0.090515
0.273254 0.807770 0.375916
0.280121 0.808502 0.375397
0.292877 0.811066 0.377960
0.301361 0.809357 0.378967
0.309814 0.811737 0.383240
0.322571 0.809021 0.382599
0.339966 0.807770 0.380554
0.359070 0.809692 0.383148
0.374115 0.808411 0.377411
0.395508 0.810120 0.383240
0.412781 0.806366 0.385590
0.432983 0.808411 0.390472
0.460297 0.804413 0.389923
0.478668 0.809143 0.393250
0.506073 0.816589 0.385406
0.534882 0.825073 0.386902
0.565491 0.831451 0.388000
0.593536 0.837555 0.381317
0.628906 0.841034 0.381866
0.660858 0.848450 0.379272
0.696747 0.856293 0.370331
0.728577 0.865570 0.366669
0.760620 0.865448 0.366577
0.799957 0.874512 0.360199
0.830505 0.873108 0.347412
0.862427 0.879761 0.335236
0.892303 0.885803 0.326965
0.924255 0.887085 0.311005
0.953522 0.893433 0.299927
0.984558 0.902924 0.295959
0.991852 0.896545 0.263916
1.000000 0.886444 0.241394
0.348358 0.839783 0.428467
0.356506 0.840332 0.430054
0.361328 0.840332 0.429840
0.375061 0.840881 0.429535
0.385254 0.840210 0.429962
0.392975 0.837524 0.425537
0.406158 0.840332 0.427277
0.422272 0.841614 0.428558
0.427185 0.840881 0.429199
0.451782 0.839264 0.431061
0.465332 0.840881 0.434479
0.484222 0.840973 0.436127
0.502716 0.835693 0.437531
0.521210 0.839478 0.438141
0.543335 0.842377 0.438049
0.570312 0.848724 0.435669
0.593903 0.855408 0.432343
0.623657 0.859375 0.429535
0.648895 0.867554 0.433716
0.678040 0.871674 0.431793
0.710205 0.874237 0.427795
0.737396 0.878113 0.426727
0.763092 0.883820 0.423401
0.790161 0.887604 0.413696
0.821472 0.888885 0.406494
0.858887 0.894165 0.407898
0.881470 0.895325 0.389496
0.910065 0.901154 0.386139
0.935944 0.904510 0.368164
0.967560 0.906006 0.359131
0.989380 0.912445 0.351929
1.000000 0.908173 0.337280
0.421997 0.868500 0.471741
0.427124 0.868805 0.472046
0.432037 0.869354 0.471313
0.440186 0.869781 0.471741
0.447479 0.866455 0.477112
0.462708 0.865997 0.474213
0.469482 0.867096 0.475281
0.484711 0.871521 0.477966
0.498474 0.865601 0.477112
0.510345 0.865997 0.483337
0.518829 0.867523 0.484863
0.536560 0.865601 0.484222
0.553619 0.865601 0.481750
0.569519 0.862701 0.483551
0.592102 0.864624 0.492737
