cube/Color400.cube
#Created by: Adobe Photoshop Export Color Lookup Plugin
#Copyright: (C) Copyright 2024 Tim Martin and Presetpro.com
TITLE "Presetpro - Color 400.jpg"
#LUT size
LUT_3D_SIZE 5
#data domain
#LUT data points
DOMAIN_MIN 0.000000 0.000000 0.000000
DOMAIN_MAX 0.903226 0.903226 0.903226
0.023376 0.086761 0.066742
0.131927 0.096039 0.068573
0.333252 0.096802 0.063416
0.690765 0.024445 0.030060
0.985565 0.075470 0.003021
0.025940 0.165283 0.080841
0.119324 0.181976 0.073425
0.354797 0.192749 0.048553
0.704865 0.200623 0.000763
0.983307 0.253235 0.001831
0.000000 0.348755 0.108307
0.079620 0.348480 0.113129
0.391510 0.459747 0.001495
0.767822 0.503754 0.001068
0.981903 0.480133 0.002167
0.000000 0.655151 0.219299
0.125275 0.649536 0.224152
0.396393 0.691437 0.200043
0.745270 0.778503 0.061951
0.983765 0.794464 0.000000
0.484344 0.891479 0.518982
0.538025 0.891479 0.524994
0.635376 0.891174 0.541382
0.764191 0.911499 0.530304
0.911865 0.928223 0.491638
0.031525 0.093445 0.152679
0.128601 0.097534 0.150116
0.340668 0.091187 0.160889
0.720398 0.000000 0.161530
0.980865 0.014313 0.140839
0.022614 0.176056 0.161957
0.135254 0.186829 0.167877
0.384491 0.192749 0.163483
0.734497 0.181671 0.149689
0.983307 0.232147 0.103302
0.003662 0.384064 0.215363
0.140106 0.382568 0.209106
0.413788 0.467194 0.173462
0.763763 0.474182 0.033661
0.984833 0.476044 0.034302
0.072937 0.675934 0.339050
0.227112 0.671082 0.337555
0.428680 0.692169 0.341644
0.749664 0.775635 0.307190
0.984070 0.785919 0.117767
0.511353 0.894501 0.590210
0.561676 0.893738 0.593109
0.651611 0.889221 0.599792
0.769562 0.911499 0.599030
0.914124 0.928955 0.581573
0.003357 0.098267 0.383331
0.153137 0.098267 0.388153
0.376312 0.100128 0.396667
0.703735 0.000000 0.428528
0.982239 0.003357 0.446411
0.000000 0.186829 0.410767
0.136353 0.195343 0.418213
0.414093 0.212036 0.426697
0.731934 0.207245 0.445312
0.985260 0.217804 0.453491
0.004822 0.431549 0.443054
0.087158 0.443817 0.449738
0.464233 0.474915 0.483429
0.773468 0.484955 0.474915
0.985565 0.511627 0.468567
0.306213 0.714813 0.561737
0.406128 0.719635 0.567657
0.535736 0.713257 0.568726
0.766357 0.780457 0.576904
0.978577 0.766663 0.476593
0.574768 0.901520 0.693054
0.620117 0.900757 0.695984
0.692749 0.898163 0.701569
0.788177 0.906799 0.703064
0.918182 0.926666 0.705566
0.000000 0.094513 0.709625
0.206329 0.086761 0.715515
0.494354 0.069305 0.721893
0.764221 0.108093 0.731903
0.975342 0.233948 0.730072
0.001068 0.205475 0.724487
0.192230 0.210205 0.722229
0.503906 0.228058 0.728577
0.774231 0.287048 0.740753
0.979462 0.386963 0.741608
0.002563 0.429291 0.732544
0.035156 0.435211 0.734375
0.513184 0.486755 0.745453
0.778198 0.552460 0.750000
0.956421 0.612640 0.758484
0.233002 0.747406 0.743011
0.362091 0.748901 0.738007
0.578552 0.755157 0.752899
0.788635 0.778503 0.774078
0.947357 0.777435 0.765900
0.629120 0.908600 0.805634
0.678375 0.907440 0.807159
0.749695 0.907745 0.811890
0.824158 0.904541 0.814148
0.925293 0.925201 0.822205
0.318115 0.155243 0.925201
0.431427 0.166748 0.931213
0.623322 0.219513 0.926666
0.823853 0.343414 0.924866
0.972229 0.463989 0.918182
0.326630 0.287170 0.927551
0.437347 0.302338 0.929291
0.629639 0.351746 0.925293
0.821564 0.456421 0.921204
0.962219 0.551117 0.917419
0.303528 0.499512 0.924561
0.429260 0.521057 0.921204
0.631500 0.559204 0.922699
0.819305 0.628143 0.914825
0.943726 0.693054 0.913025
0.282074 0.733429 0.915161
0.387512 0.731903 0.916779
0.562592 0.727386 0.915314
0.802643 0.781525 0.913330
0.933044 0.822662 0.916382
0.605103 0.915497 0.908203
0.658783 0.914520 0.912720
0.737122 0.918518 0.914856
0.835999 0.918518 0.918182
0.928528 0.925201 0.918518
