cube/Portrait160.cube
#Created by: Adobe Photoshop Export Color Lookup Plugin
#Copyright: (C) Copyright 2025 Tim Martin and Presetpro.com
TITLE "Presetpro - Portrait 160.jpg"
#LUT size
LUT_3D_SIZE 5
#data domain
#LUT data points
DOMAIN_MIN 0.000000 0.000000 0.000000
DOMAIN_MAX 0.903226 0.903226 0.903226
0.000000 0.000000 0.000000
0.124298 0.021973 0.007996
0.363739 0.000000 0.012543
0.674316 0.000000 0.002136
0.915771 0.037750 0.005676
0.002441 0.136536 0.036621
0.093628 0.161652 0.017090
0.412201 0.150787 0.000702
0.697266 0.128235 0.000000
0.913849 0.235718 0.000305
0.000000 0.389130 0.098358
0.045868 0.387695 0.104919
0.369995 0.451874 0.000000
0.735229 0.465820 0.001007
0.921844 0.470093 0.001740
0.000000 0.652222 0.231140
0.049408 0.651215 0.240387
0.356842 0.666199 0.215881
0.676300 0.704559 0.091339
0.916290 0.734497 0.004578
0.358337 0.863373 0.454010
0.422150 0.860535 0.457550
0.526611 0.866180 0.470795
0.665497 0.885620 0.437775
0.847992 0.907288 0.355835
0.000000 0.017090 0.153229
0.125702 0.032776 0.152222
0.377686 0.002441 0.156372
0.679047 0.000702 0.179749
0.901611 0.125671 0.180847
0.002441 0.160919 0.167206
0.131989 0.177307 0.179749
0.416351 0.178009 0.176605
0.703857 0.179474 0.175903
0.908600 0.265991 0.178345
0.002441 0.420502 0.253723
0.058197 0.415649 0.244629
0.414642 0.458862 0.199280
0.737671 0.460266 0.137970
0.918701 0.476990 0.127533
0.026917 0.663757 0.354828
0.194946 0.662628 0.351990
0.409515 0.670044 0.350006
0.680450 0.705566 0.277496
0.915161 0.732788 0.183807
0.386597 0.865082 0.530640
0.449768 0.866913 0.530640
0.550385 0.864349 0.541748
0.671631 0.883514 0.516968
0.853943 0.910736 0.460693
0.000000 0.057892 0.418793
0.129639 0.063446 0.424347
0.456116 0.053345 0.442139
0.714691 0.004547 0.417755
0.921844 0.096802 0.412811
0.000702 0.197174 0.433746
0.165161 0.207977 0.437622
0.475647 0.232788 0.458130
0.725098 0.236603 0.438599
0.920135 0.264954 0.426514
0.001740 0.450165 0.456421
0.208374 0.458557 0.463409
0.497192 0.480103 0.489838
0.725403 0.480835 0.472412
0.899872 0.506348 0.464111
0.334778 0.685730 0.550171
0.424591 0.686340 0.555145
0.519897 0.684601 0.542877
0.699890 0.713531 0.521545
0.908295 0.721252 0.477692
0.468262 0.874481 0.651001
0.513092 0.874176 0.647217
0.586517 0.871063 0.641235
0.688477 0.883179 0.633972
0.858795 0.909302 0.600189
0.021301 0.106750 0.686737
0.283478 0.110901 0.692291
0.561096 0.145111 0.702728
0.768311 0.230255 0.713989
0.913544 0.293365 0.686523
0.103577 0.253723 0.695831
0.303009 0.263458 0.693726
0.564240 0.303619 0.701721
0.763062 0.369202 0.713989
0.908478 0.408600 0.694733
0.004272 0.473877 0.686035
0.266998 0.478821 0.696442
0.554016 0.512512 0.702759
0.744934 0.564545 0.720245
0.894318 0.578491 0.708374
0.320099 0.700317 0.704559
0.417999 0.704834 0.701721
0.567993 0.708710 0.710815
0.731689 0.725403 0.728516
0.888031 0.721558 0.711426
0.500153 0.887756 0.760620
0.555511 0.885590 0.760620
0.646423 0.888763 0.767578
0.729950 0.888031 0.761322
0.875488 0.913147 0.747345
0.418854 0.267975 0.883087
0.513794 0.286804 0.886322
0.660370 0.336700 0.888763
0.801392 0.425964 0.891571
0.930450 0.478790 0.883087
0.419891 0.390869 0.882782
0.514526 0.401276 0.887329
0.653412 0.443481 0.883789
0.796265 0.513519 0.885620
0.929840 0.555908 0.885925
0.398041 0.556244 0.882172
0.490845 0.563934 0.881165
0.636719 0.588226 0.880249
0.783997 0.632874 0.883179
0.921844 0.666962 0.890167
0.370087 0.726105 0.879028
0.447937 0.728638 0.875488
0.569397 0.722656 0.878326
0.761322 0.753326 0.886627
0.923279 0.791992 0.897461
0.473114 0.901611 0.883392
0.535370 0.904144 0.882172
0.628204 0.904419 0.882782
0.759003 0.909698 0.887756
0.917297 0.919830 0.895630
