cube/Portrait160.cube
#Created by: Adobe Photoshop Export Color Lookup Plugin
#Copyright: (C) Copyright 2025 Tim Martin and Presetpro.com
TITLE "Presetpro - Portrait 160.jpg"
#LUT size
LUT_3D_SIZE 8
#data domain
#LUT data points
DOMAIN_MIN 0.000000 0.000000 0.000000
DOMAIN_MAX 0.903226 0.903226 0.903226
0.000000 0.000000 0.000000
0.063873 0.006683 0.000427
0.146637 0.025818 0.006287
0.273621 0.017609 0.011322
0.454926 0.000000 0.007782
0.631714 0.002014 0.002014
0.784027 0.000000 0.000000
0.915771 0.037750 0.005676
0.000427 0.070953 0.021973
0.048157 0.083496 0.012543
0.163025 0.086243 0.006683
0.299927 0.078735 0.010223
0.470215 0.033173 0.005859
0.644257 0.027832 0.000000
0.792816 0.026520 0.002838
0.916687 0.141296 0.004852
0.002319 0.167786 0.045532
0.031281 0.170929 0.047882
0.114441 0.196838 0.019623
0.328674 0.208984 0.003143
0.510590 0.175568 0.001526
0.671265 0.169403 0.000793
0.803864 0.199463 0.000793
0.914642 0.267761 0.005157
0.000000 0.308167 0.080872
0.031281 0.303497 0.083893
0.051605 0.325012 0.069733
0.272888 0.365082 0.000000
0.541168 0.391602 0.001923
0.695465 0.360046 0.002228
0.819733 0.360046 0.000702
0.918793 0.403168 0.000000
0.000000 0.469116 0.131866
0.027405 0.470520 0.136627
0.054657 0.466675 0.136414
0.192200 0.497620 0.088074
0.473663 0.530121 0.000000
0.703064 0.569000 0.000000
0.816284 0.551483 0.000000
0.923981 0.543091 0.001617
0.004059 0.620270 0.206848
0.025818 0.618744 0.209381
0.054443 0.620972 0.217590
0.228973 0.625458 0.206573
0.448090 0.651245 0.160522
0.639099 0.674713 0.038910
0.816498 0.709442 0.002014
0.916382 0.700745 0.002014
0.083771 0.750519 0.317871
0.161255 0.752655 0.318878
0.254730 0.747284 0.330627
0.361603 0.745667 0.335815
0.484894 0.762054 0.309967
0.617950 0.775909 0.271301
0.751923 0.790283 0.199677
0.908997 0.824921 0.038910
0.358337 0.863373 0.454010
0.389008 0.860535 0.459747
0.438019 0.867401 0.462494
0.497498 0.865997 0.467438
0.560577 0.869934 0.460846
0.638672 0.885620 0.447784
0.736664 0.892181 0.411377
0.847992 0.907288 0.355835
0.003143 0.009430 0.076813
0.061127 0.016510 0.074493
0.144226 0.025085 0.079163
0.281525 0.027740 0.087341
0.455353 0.000427 0.096741
0.638000 0.002014 0.093414
0.789581 0.002014 0.081757
0.908295 0.084015 0.072144
0.000000 0.083069 0.087036
0.048981 0.086609 0.086609
0.158386 0.093323 0.092499
0.297302 0.092896 0.092499
0.473877 0.060730 0.092194
0.644257 0.030579 0.084808
0.795441 0.038361 0.081055
0.913757 0.164124 0.065369
0.000427 0.181152 0.118408
0.025818 0.182678 0.117615
0.138336 0.203094 0.097656
0.334534 0.205414 0.085724
0.511810 0.187714 0.075287
0.671875 0.183044 0.066193
0.802643 0.213440 0.049377
0.917297 0.277069 0.033295
0.000000 0.321503 0.144318
0.026215 0.320374 0.141571
0.052429 0.331329 0.146637
0.295258 0.366638 0.092194
0.547424 0.385559 0.026611
0.696777 0.356079 0.027313
0.817413 0.367859 0.026611
0.916077 0.407410 0.026215
0.001923 0.480042 0.191772
0.027405 0.478821 0.196533
0.053131 0.477997 0.197235
0.234131 0.501556 0.169922
0.485809 0.532166 0.089447
0.704987 0.567474 0.025818
0.819855 0.553436 0.027832
0.924774 0.539642 0.025818
0.001617 0.624329 0.266876
0.028442 0.623810 0.265564
0.059998 0.621185 0.274780
0.268188 0.630493 0.266174
0.458466 0.654388 0.230652
0.645569 0.675629 0.163757
0.817841 0.712860 0.026215
0.917297 0.697601 0.027832
0.154785 0.751923 0.364410
0.205872 0.749908 0.368195
0.290863 0.749603 0.376068
0.388123 0.746460 0.377869
0.495026 0.760529 0.357239
0.621399 0.780670 0.325775
0.759430 0.795135 0.266174
0.908905 0.827240 0.166595
0.362823 0.866699 0.494873
0.402863 0.864075 0.492462
0.448547 0.865479 0.503876
0.500946 0.868011 0.503784
0.565826 0.870819 0.508118
0.646179 0.882477 0.485565
0.733826 0.895111 0.457306
0.851105 0.912842 0.410675
0.002319 0.022766 0.183472
0.047363 0.026703 0.178802
0.152893 0.037659 0.186584
0.288635 0.031677 0.177612
0.479218 0.001526 0.179504
0.650116 0.000000 0.188232
0.788177 0.036224 0.214844
0.904449 0.140350 0.223236
0.000000 0.090576 0.192871
0.045441 0.101105 0.198334
0.165070 0.108582 0.201874
0.310120 0.102722 0.198334
0.491486 0.046234 0.190643
0.646423 0.085144 0.209473
0.789673 0.132385 0.215027
0.908600 0.199982 0.222015
0.002319 0.196014 0.201599
0.025818 0.204224 0.208160
0.170227 0.214142 0.214935
0.341492 0.217590 0.223053
0.510712 0.213318 0.211700
0.673309 0.216980 0.214050
0.807709 0.246399 0.217163
0.911835 0.299744 0.214935
0.000793 0.343842 0.250671
0.053406 0.348602 0.258057
0.168976 0.349304 0.260254
0.335632 0.373291 0.232971
0.555756 0.379578 0.207825
0.699432 0.362671 0.201080
0.814392 0.381622 0.193695
0.915863 0.418884 0.198151
0.016052 0.498047 0.312103
0.047119 0.495331 0.305511
0.159363 0.497253 0.298157
0.305481 0.508148 0.288208
0.505829 0.539551 0.251892
0.708435 0.562012 0.199158
0.823303 0.545013 0.182861
0.919830 0.543579 0.167847
0.089874 0.637878 0.369476
0.129333 0.638397 0.361267
0.227509 0.634857 0.362915
0.342682 0.631714 0.369690
0.487305 0.655609 0.339844
0.654663 0.674408 0.300476
0.814667 0.707489 0.235901
0.919037 0.696503 0.213135
0.250763 0.756683 0.440247
0.286011 0.753021 0.440948
0.344574 0.755188 0.442566
0.426147 0.753540 0.443268
0.516144 0.759735 0.436371
0.630493 0.778961 0.416046
0.756592 0.794250 0.372620
0.911102 0.829681 0.311493
0.392548 0.865692 0.542633
0.424622 0.866486 0.541016
0.469269 0.866180 0.547180
0.522888 0.865570 0.555206
0.579590 0.867096 0.554565
0.649200 0.881256 0.537384
0.738495 0.894745 0.511749
0.854248 0.909912 0.472687
0.000000 0.042694 0.331299
0.025818 0.044342 0.332550
0.174133 0.052612 0.340424
0.343140 0.050903 0.352539
0.497650 0.000427 0.334412
0.670563 0.002747 0.334412
0.811035 0.000000 0.329376
0.922668 0.056824 0.336884
0.003143 0.109802 0.341949
0.025818 0.117981 0.343445
0.192047 0.125488 0.355591
0.353760 0.124359 0.358002
0.509094 0.106659 0.347717
0.677063 0.072327 0.341492
0.813263 0.054504 0.332611
0.919708 0.188263 0.351654
0.001923 0.210999 0.356781
0.025818 0.214844 0.360748
0.192566 0.231750 0.366211
0.373383 0.245514 0.376831
0.530243 0.243835 0.364288
0.686462 0.231812 0.353241
0.806885 0.261688 0.363922
0.903931 0.337402 0.384613
0.000000 0.360748 0.370880
0.025818 0.364685 0.370544
0.214203 0.377258 0.381592
0.393341 0.387054 0.396454
0.552094 0.388977 0.392914
0.689575 0.396057 0.384521
0.805054 0.411469 0.377655
0.906677 0.444366 0.377258
0.106018 0.521912 0.414917
0.194550 0.521515 0.420898
0.319000 0.522736 0.432220
0.405975 0.527374 0.433655
0.545380 0.547455 0.412903
0.708527 0.552917 0.389221
0.817719 0.540039 0.372192
0.912323 0.552979 0.372253
0.292053 0.649628 0.487793
0.344879 0.650848 0.492554
0.384094 0.651642 0.483948
0.434814 0.649628 0.479187
0.525543 0.656708 0.471802
0.667633 0.683014 0.447510
0.812073 0.702667 0.413300
0.911011 0.689301 0.388306
0.371704 0.761841 0.548309
0.401367 0.760651 0.540588
0.430298 0.760651 0.535767
0.484161 0.760132 0.533142
0.551849 0.759338 0.534149
0.644653 0.779053 0.520477
0.759613 0.797791 0.490417
0.905853 0.824921 0.453796
0.440704 0.869934 0.609131
0.469055 0.869843 0.612579
0.496185 0.869934 0.609833
0.542236 0.869934 0.601959
0.601257 0.867523 0.608215
0.664703 0.882568 0.607697
0.745453 0.894409 0.586853
0.857391 0.910736 0.558624
0.001526 0.067596 0.501923
0.026215 0.067505 0.503632
0.199280 0.070618 0.506653
0.400146 0.078552 0.518494
0.558563 0.073883 0.528717
0.681396 0.061462 0.504028
0.814789 0.115723 0.504547
0.921753 0.173523 0.504852
0.000427 0.133270 0.503235
0.028534 0.138123 0.513031
0.224060 0.143494 0.517944
0.412170 0.157654 0.523651
0.575775 0.163635 0.532166
0.681488 0.161713 0.511810
0.815887 0.200684 0.512634
0.918915 0.238037 0.512329
0.000793 0.236115 0.516174
0.028137 0.241547 0.520020
0.237610 0.253387 0.526154
0.425842 0.275665 0.534882
0.579651 0.294189 0.543488
0.692017 0.291962 0.525879
0.813965 0.317871 0.520111
0.913544 0.334381 0.513855
0.000000 0.376068 0.515259
0.028137 0.380676 0.526550
0.211212 0.383972 0.529022
0.427460 0.408142 0.540344
0.579712 0.435242 0.555634
0.697784 0.436462 0.546204
0.810730 0.436096 0.534607
0.906769 0.448303 0.523163
0.030853 0.530121 0.537903
0.161774 0.532074 0.536835
0.303619 0.540466 0.541962
0.445496 0.547424 0.553284
0.581848 0.559998 0.563232
0.702545 0.559998 0.559998
0.799805 0.561493 0.548157
0.899689 0.570892 0.542267
0.305817 0.666931 0.578491
0.351166 0.666840 0.580597
0.424866 0.668060 0.585785
0.518463 0.668549 0.592560
0.585052 0.669647 0.589111
0.681702 0.686157 0.580811
0.806793 0.692535 0.554626
0.907166 0.674011 0.533478
0.418243 0.770752 0.628143
0.456207 0.774597 0.630585
0.504486 0.770050 0.635956
0.557037 0.773895 0.635254
0.598236 0.771667 0.627563
0.667145 0.780487 0.622284
0.766693 0.800629 0.608643
0.900482 0.819550 0.579712
0.492645 0.875580 0.687775
0.516327 0.874695 0.686554
0.551941 0.875488 0.682007
0.581909 0.875793 0.677948
0.623810 0.876190 0.672211
0.682220 0.878540 0.677551
0.752747 0.892303 0.660858
0.862152 0.912323 0.639191
0.000000 0.097260 0.652771
0.102356 0.097748 0.652771
0.287720 0.099304 0.659149
0.465210 0.113129 0.663910
0.620941 0.156799 0.670990
0.732300 0.194122 0.675842
0.809540 0.204742 0.654083
0.912140 0.274963 0.653564
0.002655 0.164062 0.657196
0.138550 0.169128 0.660767
0.308044 0.174866 0.665009
0.474640 0.188324 0.665802
0.618073 0.231262 0.675323
0.737885 0.262634 0.678375
0.816986 0.272339 0.658630
0.910736 0.329620 0.659943
0.021515 0.273254 0.660553
0.158386 0.277588 0.659760
0.316772 0.285461 0.663788
0.478882 0.305939 0.673706
0.623962 0.342865 0.676361
0.733612 0.374664 0.687073
0.810028 0.379089 0.663574
0.905243 0.419373 0.664612
0.003143 0.398132 0.657715
0.119781 0.401855 0.656708
0.305328 0.413300 0.664185
0.479675 0.432922 0.672913
0.615662 0.465118 0.681091
0.724091 0.491852 0.690399
0.803650 0.495789 0.673218
0.899567 0.517761 0.672089
0.074951 0.545502 0.659027
0.179565 0.544281 0.664520
0.309174 0.545502 0.665833
0.442322 0.553284 0.670471
0.602661 0.574554 0.678467
0.716034 0.603607 0.693542
0.793915 0.603485 0.683441
0.897675 0.599335 0.679474
0.286011 0.670654 0.677673
0.330536 0.673615 0.669952
0.411469 0.675507 0.680389
0.507416 0.679901 0.684418
0.606415 0.685028 0.688782
0.706268 0.695557 0.699799
0.798798 0.691742 0.689087
0.889374 0.692719 0.675629
0.423126 0.780853 0.701019
0.458527 0.782196 0.703766
0.512970 0.782593 0.706085
0.575531 0.786041 0.714691
0.645782 0.786469 0.716309
0.701141 0.786743 0.709625
0.785614 0.802948 0.704681
0.902313 0.808807 0.689392
0.493347 0.884491 0.747681
0.528870 0.884491 0.751312
0.568634 0.885925 0.752747
0.615692 0.885101 0.749908
0.668549 0.885620 0.748505
0.708435 0.889374 0.744843
0.770050 0.894318 0.739380
0.870239 0.910400 0.724213
0.240051 0.148468 0.782593
0.303711 0.154449 0.778351
0.416046 0.163452 0.782684
0.541321 0.189758 0.784515
0.660461 0.238861 0.788055
0.763367 0.315247 0.793427
0.844330 0.343994 0.792725
0.907196 0.347229 0.774902
0.254730 0.218689 0.781891
0.319702 0.220917 0.785339
0.422913 0.232758 0.781982
0.543640 0.256348 0.782990
0.660248 0.299988 0.788177
0.757782 0.367767 0.791107
0.844940 0.395691 0.794037
0.904022 0.398834 0.775604
0.260895 0.324860 0.780853
0.326691 0.325653 0.782196
0.424438 0.335785 0.782501
0.544739 0.358154 0.783295
0.654877 0.396301 0.786224
0.753967 0.451263 0.791199
0.835114 0.474731 0.794342
0.897766 0.472809 0.774811
0.242920 0.438507 0.778961
0.307343 0.445190 0.777313
0.415955 0.454163 0.781281
0.534027 0.472992 0.783508
0.647308 0.504395 0.789581
0.746887 0.544769 0.793549
0.824799 0.566437 0.797791
0.891296 0.559357 0.784119
0.181213 0.558563 0.769135
0.251770 0.559174 0.768829
0.371887 0.564636 0.775421
0.509430 0.573700 0.779358
0.631195 0.598328 0.784821
0.734344 0.630585 0.797455
0.820953 0.651062 0.800720
0.887634 0.647705 0.786835
0.299164 0.683441 0.777039
0.344086 0.680695 0.780579
0.411896 0.683014 0.776947
0.501251 0.684235 0.780670
0.600342 0.682617 0.784515
0.715912 0.710541 0.794769
0.813568 0.736053 0.805969
0.893311 0.734009 0.796661
0.396301 0.789581 0.783295
0.440216 0.789581 0.789154
0.493439 0.789581 0.785858
0.556000 0.792725 0.787354
0.633514 0.793427 0.789490
0.717010 0.800110 0.799683
0.801422 0.817108 0.804565
0.896667 0.805267 0.796478
0.497803 0.894318 0.809204
0.525238 0.894318 0.809204
0.565216 0.898163 0.809631
0.620758 0.893402 0.814178
0.680786 0.897888 0.813873
0.746063 0.900818 0.821259
0.805267 0.897766 0.818817
0.888763 0.914276 0.809204
0.418854 0.267975 0.883087
0.464294 0.274261 0.883179
0.530914 0.289642 0.884491
0.615387 0.317780 0.885620
0.694336 0.360596 0.881866
0.779358 0.413513 0.888763
0.860718 0.467957 0.885620
0.930450 0.478790 0.883087
0.421295 0.326599 0.885529
0.466736 0.334991 0.885315
0.533722 0.343475 0.886230
0.613892 0.369904 0.883698
0.696381 0.407532 0.888855
0.782593 0.456116 0.882904
0.858612 0.505280 0.888367
0.929535 0.519958 0.885925
0.421692 0.415619 0.882477
0.461884 0.416840 0.882904
0.529175 0.427277 0.884094
0.612671 0.448212 0.883179
0.696869 0.481110 0.882996
0.776215 0.518341 0.884827
0.850800 0.565002 0.884125
0.925293 0.573517 0.885101
0.408234 0.510864 0.879639
0.455200 0.512268 0.880554
0.521790 0.522888 0.882904
0.601624 0.539398 0.886810
0.685364 0.560852 0.881989
0.766510 0.593414 0.885101
0.848969 0.626526 0.885620
0.920746 0.634827 0.885010
0.374939 0.603180 0.879364
0.422394 0.603180 0.880951
0.488281 0.607819 0.878021
0.577759 0.618134 0.882050
0.667725 0.634857 0.883087
0.760742 0.662079 0.886841
0.845764 0.691315 0.889465
0.923279 0.700317 0.890686
0.354218 0.700623 0.876526
0.395416 0.701843 0.877014
0.448822 0.697205 0.874176
0.537170 0.698822 0.877808
0.637573 0.711365 0.879242
0.743744 0.732910 0.884003
0.840179 0.757080 0.893097
0.923462 0.770752 0.895020
0.418060 0.802826 0.876190
0.450043 0.801849 0.878632
0.495880 0.804962 0.881775
0.555603 0.803741 0.880768
0.628571 0.802124 0.882080
0.706512 0.803040 0.882782
0.824493 0.823883 0.887939
0.914276 0.846863 0.894623
0.473114 0.901611 0.883392
0.502472 0.903748 0.884918
0.547516 0.903320 0.882477
0.597473 0.901306 0.877106
0.665802 0.904449 0.888763
0.736237 0.909607 0.887665
0.821045 0.913147 0.891998
0.917297 0.919830 0.895630
