cube/Portrait160.cube
#Created by: Adobe Photoshop Export Color Lookup Plugin
#Copyright: (C) Copyright 2025 Tim Martin and Presetpro.com
TITLE "Presetpro - Portrait 160.jpg"
#LUT size
LUT_3D_SIZE 32
#data domain
DOMAIN_MIN 0.0 0.0 0.0
DOMAIN_MAX 1.0 1.0 1.0
#LUT data points
0.000000 0.000000 0.000000
0.012909 0.000000 0.003143
0.034882 0.003143 0.003143
0.053558 0.009094 0.009094
0.063873 0.006683 0.000427
0.080322 0.012024 0.000000
0.099518 0.013763 0.004333
0.124298 0.021973 0.007996
0.146637 0.025818 0.006287
0.172821 0.026001 0.011658
0.206482 0.023071 0.011536
0.238556 0.023071 0.014771
0.273621 0.017609 0.011322
0.312653 0.011230 0.012543
0.363739 0.000000 0.012543
0.408630 0.001617 0.010925
0.454926 0.000000 0.007782
0.497925 0.001404 0.009430
0.547516 0.000000 0.009430
0.591003 0.001221 0.009430
0.631714 0.002014 0.002014
0.674316 0.000000 0.002136
0.713745 0.000916 0.000916
0.749115 0.002319 0.000000
0.784027 0.000000 0.000000
0.817688 0.000610 0.002533
0.850128 0.003143 0.000519
0.878845 0.000427 0.000000
0.915771 0.037750 0.005676
0.939209 0.095642 0.000000
0.964996 0.137421 0.000092
0.987457 0.172546 0.000000
0.003021 0.015961 0.000000
0.012817 0.019104 0.003021
0.029083 0.019501 0.000183
0.050720 0.022339 0.003235
0.067413 0.025482 0.000305
0.083069 0.028198 0.005463
0.103271 0.029022 0.003357
0.126923 0.034698 0.006378
0.145935 0.034180 0.007080
0.176971 0.034882 0.014679
0.204590 0.032684 0.006378
0.241699 0.037811 0.007385
0.278076 0.027313 0.007599
0.320740 0.022156 0.012543
0.367584 0.011719 0.011536
0.416321 0.006439 0.015472
0.453430 0.006439 0.006287
0.504517 0.006561 0.010925
0.545349 0.009491 0.010529
0.591187 0.009491 0.005066
0.639099 0.006439 0.004242
0.676422 0.006439 0.000092
0.715546 0.009491 0.000000
0.747498 0.009613 0.002228
0.787354 0.009613 0.000000
0.823242 0.008881 0.000000
0.855499 0.009003 0.000000
0.881287 0.009277 0.002625
0.910217 0.063629 0.003143
0.939819 0.115051 0.000183
0.964996 0.150482 0.005859
0.990692 0.185394 0.003235
0.000000 0.032135 0.006470
0.009369 0.035370 0.009094
0.028381 0.038208 0.003357
0.044464 0.041534 0.003357
0.067200 0.041534 0.000000
0.083679 0.041748 0.003632
0.103485 0.044464 0.003723
0.127441 0.051270 0.008728
0.147430 0.047821 0.002228
0.181519 0.050751 0.007782
0.207794 0.050140 0.001221
0.245941 0.046722 0.009613
0.281525 0.043274 0.007263
0.325714 0.033752 0.013458
0.367065 0.022827 0.010620
0.417450 0.014526 0.013672
0.456573 0.014404 0.005981
0.504730 0.012909 0.013550
0.548798 0.014221 0.002838
0.596008 0.014130 0.000000
0.630096 0.013306 0.003723
0.676422 0.014832 0.000000
0.715759 0.013092 0.005157
0.752563 0.013092 0.000000
0.784637 0.013092 0.000000
0.823364 0.016632 0.000610
0.855408 0.015533 0.000000
0.887482 0.028198 0.005280
0.913055 0.086487 0.002625
0.942383 0.131104 0.000427
0.965118 0.163483 0.002930
0.984314 0.198395 0.000000
0.000000 0.051025 0.012268
0.006439 0.053864 0.015076
0.019073 0.057404 0.012543
0.034729 0.057617 0.012268
0.058289 0.064178 0.000610
0.083679 0.063690 0.003143
0.103882 0.059113 0.000916
0.133301 0.063568 0.009094
0.155731 0.062653 0.005463
0.183746 0.066101 0.009094
0.213593 0.062469 0.012146
0.246521 0.066101 0.010101
0.291809 0.058624 0.009094
0.326324 0.050934 0.013245
0.372620 0.041107 0.012024
0.416718 0.026031 0.012268
0.462952 0.019348 0.011047
0.509064 0.019348 0.006287
0.553772 0.019348 0.006287
0.600372 0.020569 0.004456
0.640839 0.019653 0.000000
0.681580 0.022491 0.000000
0.720917 0.021576 0.003143
0.753265 0.019653 0.000000
0.787750 0.021484 0.002411
0.827820 0.019653 0.000000
0.851257 0.023499 0.000000
0.887756 0.065002 0.002747
0.915771 0.112854 0.002838
0.942261 0.150421 0.002838
0.962280 0.182587 0.000000
0.987732 0.214172 0.000000
0.000427 0.070953 0.021973
0.006561 0.073364 0.016174
0.013306 0.073669 0.013550
0.023712 0.079163 0.013763
0.048157 0.083496 0.012543
0.079620 0.086823 0.007080
0.105408 0.088959 0.006073
0.128235 0.086945 0.008728
0.163025 0.086243 0.006683
0.186676 0.081360 0.007690
0.223389 0.083069 0.012878
0.252930 0.083679 0.007996
0.299927 0.078735 0.010223
0.338654 0.073181 0.009918
0.384674 0.060516 0.013153
0.421997 0.050995 0.008728
0.470215 0.033173 0.005859
0.512604 0.028961 0.003143
0.559235 0.027527 0.001312
0.601929 0.027039 0.002747
0.644257 0.027832 0.000000
0.684723 0.025818 0.000000
0.721344 0.027649 0.003143
0.760071 0.028534 0.001617
0.792816 0.026520 0.002838
0.828430 0.027832 0.001221
0.856415 0.064484 0.000427
0.885925 0.106995 0.000427
0.916687 0.141296 0.004852
0.939026 0.176208 0.002533
0.964508 0.202209 0.000000
0.993713 0.228607 0.000000
0.003143 0.090240 0.026093
0.006439 0.092865 0.025604
0.012909 0.090759 0.020325
0.024628 0.096008 0.025604
0.037659 0.099548 0.017609
0.061005 0.102783 0.013550
0.097595 0.114349 0.009308
0.129150 0.115845 0.006073
0.162323 0.114227 0.010315
0.196899 0.106323 0.006683
0.229553 0.105927 0.007263
0.264435 0.101685 0.011139
0.304565 0.102264 0.006775
0.346863 0.096008 0.005768
0.387909 0.092865 0.011047
0.431091 0.084564 0.004242
0.482056 0.066559 0.005676
0.523041 0.049438 0.002411
0.566315 0.036102 0.000519
0.613129 0.032257 0.001404
0.649628 0.032257 0.000000
0.689880 0.034393 0.002625
0.726379 0.032776 0.000000
0.763702 0.033783 0.000519
0.797089 0.044586 0.000000
0.830841 0.079193 0.001129
0.859039 0.113312 0.001007
0.889984 0.142548 0.000519
0.914032 0.172943 0.000000
0.939941 0.199432 0.000000
0.966003 0.227753 0.000000
0.991608 0.252899 0.000519
0.003723 0.112671 0.032593
0.009003 0.113281 0.032593
0.012909 0.115845 0.032593
0.019958 0.115509 0.026917
0.025818 0.121887 0.029846
0.045105 0.125122 0.022766
0.074432 0.131500 0.014465
0.119049 0.141602 0.011047
0.153381 0.144653 0.007874
0.200439 0.138672 0.009521
0.238159 0.135864 0.006073
0.272644 0.129578 0.000610
0.315491 0.129700 0.010742
0.357056 0.123901 0.004944
0.400574 0.116425 0.002228
0.444061 0.110870 0.005066
0.487946 0.104370 0.005249
0.532440 0.093353 0.000000
0.575195 0.086334 0.001923
0.615479 0.076141 0.001312
0.656494 0.068451 0.000000
0.695740 0.066742 0.001526
0.730957 0.075317 0.003143
0.768066 0.085846 0.001740
0.795135 0.109253 0.000000
0.829529 0.128387 0.001221
0.863403 0.154663 0.003143
0.888275 0.178162 0.001007
0.916992 0.202148 0.000000
0.937317 0.225616 0.000000
0.964996 0.251038 0.000000
0.990570 0.275818 0.000000
0.002441 0.136536 0.036621
0.008881 0.140778 0.038452
0.015350 0.141388 0.039062
0.019348 0.138947 0.035217
0.031067 0.144226 0.041077
0.032257 0.148193 0.033997
0.046112 0.156372 0.023987
0.093628 0.161652 0.017090
0.146423 0.171265 0.007690
0.196289 0.178741 0.005554
0.240814 0.175598 0.004944
0.283569 0.169342 0.003235
0.323792 0.166199 0.001923
0.365448 0.157898 0.001404
0.412201 0.150787 0.000702
0.455383 0.142120 0.000000
0.498871 0.139557 0.000000
0.541138 0.132385 0.000702
0.580353 0.129150 0.000702
0.623535 0.128326 0.001221
0.659943 0.122955 0.001312
0.697266 0.128235 0.000000
0.734894 0.132294 0.000702
0.770172 0.141907 0.003143
0.800385 0.157776 0.000000
0.833496 0.173065 0.006897
0.863190 0.189575 0.002930
0.884827 0.212036 0.000793
0.913849 0.235718 0.000305
0.939453 0.256866 0.000000
0.967438 0.279022 0.000000
0.993011 0.301422 0.000702
0.002319 0.167786 0.045532
0.008881 0.167908 0.045624
0.013519 0.166077 0.048462
0.024017 0.165466 0.048584
0.031281 0.170929 0.047882
0.032562 0.174255 0.040070
0.039307 0.183044 0.034302
0.066101 0.185699 0.024292
0.114441 0.196838 0.019623
0.172424 0.205627 0.004578
0.238983 0.221222 0.003723
0.285065 0.216583 0.001617
0.328674 0.208984 0.003143
0.375702 0.203918 0.000000
0.424133 0.194794 0.000610
0.466614 0.182068 0.000000
0.510590 0.175568 0.001526
0.552277 0.174866 0.002533
0.594818 0.169403 0.000000
0.634979 0.167480 0.000793
0.671265 0.169403 0.000793
0.703552 0.172852 0.001312
0.742096 0.181030 0.000000
0.776550 0.184387 0.002319
0.803864 0.199463 0.000793
0.836517 0.212708 0.000000
0.863007 0.230652 0.000000
0.891418 0.248138 0.000000
0.914642 0.267761 0.005157
0.938110 0.286407 0.001007
0.968170 0.304718 0.000793
0.991394 0.324646 0.000793
0.000000 0.201965 0.052002
0.006439 0.199738 0.054260
0.012909 0.197510 0.052002
0.020264 0.196625 0.052002
0.025818 0.199738 0.059204
0.032257 0.203369 0.051910
0.040924 0.212006 0.048981
0.048309 0.213196 0.037842
0.076202 0.230194 0.025085
0.145081 0.238281 0.016083
0.210022 0.242767 0.003143
0.289520 0.261169 0.000916
0.337860 0.256805 0.004456
0.386719 0.250946 0.001801
0.432953 0.241333 0.007385
0.476837 0.231720 0.000000
0.518890 0.220551 0.002411
0.560669 0.215515 0.000793
0.602112 0.213196 0.002228
0.642975 0.210968 0.003845
0.675629 0.214111 0.001129
0.711731 0.216248 0.002136
0.745117 0.222626 0.003143
0.781525 0.231293 0.000000
0.806366 0.243134 0.002319
0.838745 0.254395 0.000000
0.864532 0.267761 0.000000
0.895966 0.283234 0.001831
0.916077 0.299225 0.000000
0.942383 0.315399 0.000000
0.968170 0.334320 0.002136
0.990570 0.353485 0.004456
0.001007 0.232697 0.058502
0.007355 0.232788 0.064880
0.012909 0.233521 0.064667
0.019348 0.231689 0.063873
0.028351 0.232086 0.066284
0.034882 0.234222 0.060120
0.038696 0.239990 0.056274
0.045868 0.249084 0.046234
0.057465 0.259735 0.039978
0.105927 0.268036 0.021271
0.180389 0.273468 0.005157
0.254913 0.287231 0.002014
0.341919 0.307770 0.003021
0.392578 0.302429 0.000000
0.437195 0.293945 0.002136
0.482208 0.287048 0.000000
0.522430 0.280151 0.000000
0.570953 0.269623 0.001007
0.612549 0.260101 0.003448
0.654602 0.254761 0.002136
0.684143 0.254639 0.002014
0.720123 0.256683 0.001129
0.748840 0.266388 0.001007
0.781708 0.273682 0.003357
0.814667 0.280762 0.000000
0.839752 0.291199 0.000000
0.866364 0.306488 0.000519
0.889801 0.321869 0.001007
0.920441 0.332489 0.003143
0.941772 0.346649 0.000183
0.971191 0.363251 0.004150
0.992737 0.381256 0.000000
0.000000 0.267883 0.066101
0.006439 0.270935 0.073181
0.012909 0.270111 0.072357
0.019348 0.267609 0.073181
0.025818 0.273071 0.067810
0.032867 0.268402 0.071228
0.040741 0.274780 0.071136
0.045166 0.281158 0.062225
0.051605 0.289856 0.051331
0.065552 0.300171 0.033295
0.154663 0.306549 0.020935
0.227997 0.319183 0.005371
0.298615 0.330933 0.004150
0.385406 0.351654 0.001831
0.446411 0.351044 0.002014
0.487366 0.343872 0.002838
0.532867 0.335480 0.000000
0.575562 0.324036 0.001221
0.618530 0.317352 0.002014
0.656921 0.310059 0.000793
0.691498 0.301270 0.001129
0.723480 0.302399 0.001129
0.754303 0.305756 0.002014
0.784241 0.313324 0.000000
0.813568 0.320923 0.000702
0.843903 0.333679 0.000000
0.871613 0.342194 0.001129
0.896576 0.354919 0.000000
0.918610 0.369690 0.001129
0.943481 0.380646 0.000000
0.969269 0.395294 0.002014
0.993713 0.407959 0.002014
0.000000 0.308167 0.080872
0.006439 0.308167 0.080872
0.012909 0.306213 0.078918
0.019348 0.307434 0.078918
0.031281 0.303497 0.083893
0.032257 0.306213 0.085205
0.038696 0.310577 0.080872
0.045166 0.315613 0.073364
0.051605 0.325012 0.069733
0.058960 0.335022 0.055145
0.115631 0.342926 0.036530
0.203705 0.351227 0.006561
0.272888 0.365082 0.000000
0.346436 0.372375 0.000000
0.432648 0.393250 0.004547
0.498810 0.395844 0.000000
0.541168 0.391602 0.001923
0.582611 0.382202 0.001404
0.621643 0.373901 0.003143
0.658051 0.368713 0.001221
0.695465 0.360046 0.002228
0.727539 0.355042 0.000000
0.756622 0.353760 0.002228
0.788391 0.357605 0.002014
0.819733 0.360046 0.000702
0.845825 0.369690 0.000000
0.868469 0.381226 0.002625
0.896973 0.392029 0.004333
0.918793 0.403168 0.000000
0.948456 0.413208 0.002411
0.972595 0.428986 0.000000
0.993713 0.439911 0.003143
0.003143 0.344574 0.089172
0.010895 0.345825 0.090485
0.016541 0.348969 0.092285
0.022186 0.348175 0.095123
0.032593 0.344543 0.094635
0.038544 0.347137 0.093323
0.038696 0.347656 0.093079
0.045868 0.353333 0.089355
0.054260 0.362030 0.082367
0.059387 0.368835 0.072968
0.077881 0.376099 0.053406
0.171204 0.388458 0.031860
0.246765 0.398987 0.004028
0.322052 0.404938 0.000000
0.394287 0.413330 0.000000
0.480774 0.434509 0.000000
0.546936 0.442780 0.005432
0.588379 0.439545 0.003235
0.627502 0.429535 0.002625
0.663727 0.424164 0.003937
0.696869 0.419312 0.001312
0.730133 0.414551 0.000000
0.760773 0.409882 0.001312
0.789124 0.405457 0.003632
0.820953 0.402924 0.004456
0.849579 0.408630 0.000610
0.874725 0.417511 0.003143
0.894958 0.425812 0.001404
0.922241 0.433105 0.000000
0.948639 0.446381 0.005859
0.970062 0.457703 0.001404
0.993713 0.473175 0.000000
0.000000 0.389130 0.098358
0.008179 0.388702 0.101593
0.014648 0.386200 0.101715
0.021667 0.387421 0.102905
0.025818 0.387695 0.101501
0.033997 0.386475 0.101990
0.040436 0.387421 0.109192
0.045868 0.387695 0.104919
0.053040 0.397125 0.100189
0.061218 0.403809 0.090485
0.064941 0.414124 0.071655
0.135498 0.422241 0.057281
0.226044 0.433838 0.024872
0.300110 0.442383 0.003845
0.369995 0.451874 0.000000
0.440399 0.459778 0.000092
0.529877 0.474487 0.003357
0.594849 0.490936 0.003143
0.630859 0.484253 0.002625
0.665558 0.479614 0.004242
0.700317 0.474640 0.000000
0.735229 0.465820 0.001007
0.763428 0.463287 0.001404
0.793976 0.459259 0.000000
0.821655 0.454712 0.001740
0.846832 0.450775 0.000000
0.876648 0.451904 0.001221
0.903961 0.460510 0.003143
0.921844 0.470093 0.001740
0.944305 0.478729 0.000000
0.969543 0.489563 0.003021
0.992310 0.497559 0.000000
0.001526 0.429077 0.111328
0.008057 0.429199 0.111633
0.016052 0.427460 0.117615
0.024017 0.428986 0.119720
0.029053 0.427368 0.119202
0.037018 0.425842 0.120636
0.040527 0.429688 0.123047
0.046661 0.425842 0.117584
0.053223 0.431519 0.119812
0.062927 0.438385 0.107178
0.068756 0.449829 0.092804
0.101990 0.456909 0.077301
0.205383 0.465393 0.066803
0.285126 0.472504 0.030853
0.354126 0.481903 0.003113
0.421173 0.490204 0.001526
0.494659 0.498230 0.003021
0.563141 0.519073 0.000000
0.627228 0.534027 0.000000
0.671417 0.527130 0.003021
0.703461 0.521057 0.001129
0.735840 0.516113 0.001526
0.765045 0.511353 0.003021
0.789215 0.509735 0.000000
0.820038 0.504272 0.000000
0.848450 0.499023 0.004150
0.874237 0.498993 0.000000
0.899414 0.499115 0.004456
0.926605 0.500854 0.004944
0.949036 0.507355 0.000000
0.971283 0.518372 0.000000
0.995331 0.529510 0.000000
0.000000 0.469116 0.131866
0.006439 0.469025 0.128723
0.013092 0.466064 0.127411
0.020966 0.467499 0.128845
0.027405 0.470520 0.136627
0.035278 0.465881 0.131775
0.040222 0.465973 0.135101
0.045166 0.466766 0.138855
0.054657 0.466675 0.136414
0.059479 0.476990 0.124817
0.064514 0.485077 0.122162
0.092102 0.490540 0.105988
0.192200 0.497620 0.088074
0.266571 0.509247 0.068665
0.338013 0.517365 0.037079
0.403656 0.519318 0.000580
0.473663 0.530121 0.000000
0.537598 0.541351 0.000000
0.602936 0.552917 0.000000
0.669373 0.572113 0.004456
0.703064 0.569000 0.000000
0.737427 0.562622 0.001007
0.765045 0.556854 0.001617
0.793762 0.560089 0.000000
0.816284 0.551483 0.000000
0.849060 0.549042 0.003235
0.875153 0.545929 0.004150
0.900696 0.542786 0.000000
0.923981 0.543091 0.001617
0.950165 0.544098 0.001312
0.977234 0.548828 0.003143
0.996765 0.558350 0.000000
0.001404 0.507324 0.143219
0.009491 0.508942 0.144836
0.013092 0.505829 0.146851
0.020782 0.507050 0.148071
0.025818 0.505615 0.149475
0.033661 0.507019 0.150909
0.038696 0.505615 0.155762
0.045166 0.508057 0.153015
0.053040 0.503296 0.156067
0.058075 0.509949 0.146881
0.064514 0.519470 0.145721
0.088043 0.522491 0.121399
0.187286 0.531372 0.118958
0.261444 0.541412 0.100250
0.332031 0.547791 0.084869
0.394562 0.554077 0.053070
0.462616 0.560577 0.007111
0.518463 0.571472 0.000000
0.583496 0.578186 0.000000
0.637604 0.590698 0.000183
0.699799 0.609131 0.000000
0.736542 0.607330 0.001801
0.760895 0.599731 0.000000
0.795380 0.601440 0.000000
0.817841 0.596191 0.000000
0.847351 0.593750 0.000000
0.871613 0.589722 0.002625
0.898102 0.590210 0.002747
0.918701 0.587189 0.000000
0.946899 0.581207 0.000000
0.974304 0.579590 0.001740
1.000000 0.585785 0.004852
0.000000 0.545166 0.163635
0.006439 0.544342 0.164154
0.012909 0.542755 0.162537
0.019348 0.546967 0.165466
0.027527 0.545654 0.165466
0.038544 0.543335 0.164978
0.042969 0.543854 0.170441
0.045166 0.546356 0.169006
0.052429 0.538879 0.172760
0.058960 0.546051 0.171753
0.066650 0.548462 0.167419
0.096130 0.555054 0.150940
0.190308 0.563751 0.146057
0.261139 0.570221 0.134644
0.325775 0.576599 0.121094
0.387756 0.583099 0.095093
0.448669 0.591217 0.068024
0.507446 0.599762 0.025024
0.565002 0.603455 0.000000
0.619995 0.616608 0.000092
0.669647 0.622864 0.001129
0.726013 0.639862 0.000000
0.766266 0.646027 0.000000
0.794067 0.640289 0.000000
0.816711 0.638458 0.000000
0.845947 0.634613 0.000000
0.869995 0.630371 0.004944
0.892334 0.627625 0.001312
0.919403 0.624420 0.001312
0.945709 0.624817 0.001831
0.971375 0.620972 0.000000
1.000000 0.624603 0.000000
0.000000 0.582062 0.184601
0.006439 0.582062 0.184601
0.012909 0.582062 0.184601
0.021271 0.583984 0.186523
0.028870 0.580505 0.188446
0.033661 0.583984 0.186005
0.038696 0.582764 0.190857
0.047791 0.582581 0.192078
0.055634 0.581177 0.190857
0.059082 0.582336 0.199371
0.067657 0.585083 0.196228
0.109528 0.591370 0.177338
0.203888 0.595795 0.172058
0.270752 0.602295 0.163879
0.331848 0.609772 0.149231
0.391632 0.613831 0.134033
0.443207 0.625366 0.109711
0.497040 0.628906 0.093018
0.555695 0.633972 0.058105
0.605225 0.643585 0.005798
0.655609 0.648010 0.000000
0.702026 0.658966 0.000427
0.754700 0.671692 0.003143
0.793030 0.678497 0.000000
0.820251 0.674957 0.000702
0.843994 0.670593 0.000610
0.868256 0.669189 0.000702
0.889893 0.666351 0.000427
0.916077 0.665558 0.000000
0.944305 0.664337 0.000000
0.970490 0.661194 0.000000
1.000000 0.662415 0.000000
0.004059 0.620270 0.206848
0.010315 0.620361 0.206848
0.014038 0.619171 0.209808
0.020477 0.620087 0.207977
0.025818 0.618744 0.209381
0.034485 0.619171 0.208557
0.038696 0.619171 0.212036
0.050323 0.619171 0.209808
0.054443 0.620972 0.217590
0.059204 0.613831 0.216980
0.084961 0.617157 0.220612
0.152527 0.623413 0.206696
0.228973 0.625458 0.206573
0.286621 0.631714 0.190979
0.341553 0.637054 0.182404
0.395782 0.646881 0.169250
0.448090 0.651245 0.160522
0.494507 0.655609 0.137634
0.550629 0.660858 0.115173
0.594299 0.668335 0.092712
0.639099 0.674713 0.038910
0.682892 0.681915 0.006104
0.731842 0.688385 0.000183
0.778564 0.698700 0.000305
0.816498 0.709442 0.002014
0.841980 0.708099 0.000000
0.866364 0.704468 0.000610
0.892120 0.701233 0.000000
0.916382 0.700745 0.002014
0.944794 0.695770 0.000000
0.969147 0.698517 0.000000
0.994843 0.692627 0.006073
0.000000 0.652222 0.231140
0.008575 0.656372 0.232269
0.015015 0.654358 0.235504
0.022491 0.655365 0.236511
0.026794 0.657471 0.236511
0.034882 0.654877 0.235992
0.040833 0.653351 0.241760
0.049408 0.651215 0.240387
0.052948 0.653564 0.242981
0.077515 0.651215 0.235107
0.150543 0.649078 0.248047
0.207794 0.652222 0.237457
0.260681 0.655365 0.234406
0.306305 0.662964 0.228729
0.356842 0.666199 0.215881
0.402985 0.674194 0.204132
0.452423 0.679962 0.193512
0.496094 0.686340 0.181335
0.545349 0.687439 0.166565
0.586945 0.696960 0.147156
0.631592 0.702240 0.128937
0.676300 0.704559 0.091339
0.714355 0.711945 0.040527
0.757019 0.714050 0.004272
0.798492 0.728149 0.000000
0.840668 0.740692 0.004669
0.868958 0.740601 0.006287
0.893951 0.740082 0.000000
0.916290 0.734497 0.004578
0.943359 0.732666 0.000000
0.969482 0.729736 0.000000
0.993713 0.729553 0.002014
0.000000 0.688232 0.261719
0.008575 0.688141 0.265961
0.013092 0.684387 0.261017
0.022491 0.687317 0.262115
0.025818 0.685089 0.261200
0.034058 0.688751 0.263519
0.040253 0.688934 0.266144
0.054901 0.686523 0.267578
0.103455 0.687927 0.269318
0.162811 0.685089 0.270630
0.213989 0.685089 0.274963
0.251007 0.683990 0.272430
0.290344 0.688629 0.263947
0.335175 0.691376 0.256775
0.375610 0.696808 0.251709
0.416260 0.703003 0.240265
0.458374 0.708679 0.233276
0.504120 0.711914 0.224152
0.544342 0.713318 0.212311
0.582062 0.722443 0.198181
0.625458 0.723846 0.177216
0.667816 0.731049 0.161133
0.707062 0.736603 0.131287
0.745300 0.741669 0.103271
0.781281 0.743500 0.040222
0.822357 0.757843 0.000031
0.861786 0.772522 0.002228
0.891815 0.771118 0.000916
0.911621 0.766357 0.000000
0.943268 0.763519 0.000000
0.968964 0.763519 0.003021
0.995941 0.760406 0.000000
0.000031 0.720093 0.294800
0.006470 0.720093 0.290131
0.013336 0.718689 0.287903
0.024841 0.721619 0.290863
0.035248 0.716949 0.296722
0.071259 0.720093 0.294800
0.110840 0.716125 0.290863
0.157410 0.717743 0.298645
0.198883 0.716858 0.297943
0.229919 0.716125 0.299255
0.268951 0.716614 0.297943
0.291595 0.715027 0.302063
0.328796 0.718170 0.301788
0.360657 0.720398 0.295013
0.393005 0.724640 0.284607
0.434479 0.730286 0.280640
0.469116 0.733459 0.274445
0.505005 0.739105 0.264832
0.548279 0.740204 0.249268
0.584381 0.748322 0.237213
0.619965 0.751160 0.229431
0.659119 0.754578 0.213226
0.696625 0.760071 0.190063
0.727966 0.765533 0.170837
0.763885 0.769684 0.147461
0.801514 0.775330 0.106873
0.842438 0.785767 0.037292
0.889893 0.796204 0.000824
0.912018 0.795380 0.000000
0.945709 0.795380 0.002319
0.967438 0.794586 0.000702
0.994537 0.789917 0.000000
0.083771 0.750519 0.317871
0.098114 0.748901 0.322845
0.120117 0.748993 0.320496
0.140045 0.748108 0.323761
0.161255 0.752655 0.318878
0.182892 0.750702 0.323944
0.209656 0.748108 0.330109
0.234711 0.749481 0.325165
0.254730 0.747284 0.330627
0.281921 0.747162 0.328094
0.310852 0.745941 0.325165
0.336700 0.748779 0.330841
0.361603 0.745667 0.335815
0.390594 0.750092 0.327515
0.422852 0.754364 0.323761
0.453613 0.757294 0.318176
0.484894 0.762054 0.309967
0.515015 0.765198 0.300446
0.551910 0.771271 0.295105
0.580322 0.775604 0.281769
0.617950 0.775909 0.271301
0.655762 0.781982 0.254608
0.685822 0.785339 0.243805
0.720093 0.791809 0.224976
0.751923 0.790283 0.199677
0.792786 0.798401 0.180450
0.828583 0.802338 0.145447
0.864075 0.809296 0.111969
0.908997 0.824921 0.038910
0.939117 0.832275 0.000031
0.965607 0.826630 0.003052
0.998596 0.824799 0.000031
0.189758 0.780029 0.353394
0.199341 0.778107 0.354004
0.212067 0.777496 0.356537
0.225403 0.777496 0.357147
0.237244 0.774780 0.355621
0.252594 0.777008 0.356720
0.271088 0.779419 0.358337
0.287018 0.778931 0.358337
0.311310 0.772858 0.362488
0.329193 0.780029 0.360992
0.355591 0.776489 0.359650
0.376984 0.776093 0.367371
0.396301 0.775696 0.362823
0.417938 0.778809 0.365936
0.445831 0.782074 0.358551
0.466553 0.782257 0.355621
0.498474 0.787964 0.351074
0.526367 0.792603 0.340363
0.559509 0.793213 0.336487
0.592773 0.798859 0.322540
0.620270 0.803223 0.314117
0.654785 0.806366 0.303284
0.684479 0.814240 0.289948
0.716339 0.817291 0.278107
0.748596 0.817596 0.263824
0.783783 0.826508 0.242279
0.812805 0.826599 0.216980
0.846375 0.831055 0.195526
0.884613 0.837738 0.158997
0.931854 0.853638 0.106812
0.966614 0.855438 0.079498
1.000000 0.851593 0.073700
0.252197 0.808868 0.386505
0.259247 0.809265 0.386993
0.269958 0.805939 0.387207
0.282776 0.806549 0.387817
0.291962 0.806213 0.392761
0.306305 0.808350 0.392761
0.323792 0.804596 0.393585
0.343201 0.804993 0.392548
0.360291 0.803894 0.392456
0.375549 0.808868 0.392456
0.397583 0.805725 0.391632
0.417389 0.804718 0.395386
0.430389 0.804504 0.399231
0.449707 0.808350 0.394562
0.470551 0.805206 0.395905
0.492462 0.813507 0.393890
0.517548 0.814117 0.388611
0.544067 0.818268 0.377991
0.569733 0.821411 0.370789
0.594788 0.826477 0.368378
0.621490 0.830231 0.361481
0.652222 0.830841 0.352478
0.680542 0.837097 0.337006
0.715851 0.842773 0.329620
0.739197 0.843872 0.311401
0.773682 0.846405 0.299255
0.800446 0.852783 0.282959
0.830780 0.853790 0.259674
0.867096 0.859772 0.234070
0.912109 0.863922 0.200592
0.956329 0.879486 0.169617
0.994232 0.882538 0.141907
0.312408 0.834930 0.424225
0.317047 0.832703 0.421600
0.326935 0.834930 0.424225
0.334106 0.834839 0.424530
0.340637 0.834930 0.423431
0.358429 0.834930 0.424652
0.372192 0.834747 0.425232
0.386505 0.836365 0.428772
0.396698 0.836060 0.430084
0.416016 0.835358 0.427368
0.426727 0.834534 0.429199
0.446930 0.836578 0.431427
0.469971 0.833313 0.432129
0.484711 0.838196 0.429901
0.501099 0.835968 0.431915
